!!!!SEGMENT: pl-sa--231-a-vi-35--001-007_anonim--litania-rosa-mystica.krn
!!!cenid: 17xx:1402
!!!COM: Anonim
!!!COM-rismID: pe30004985
!!!CDT:
!!!CNT:
!!!OPR: Litania
!!!OTL: Rosa mystica
!!!OMV: 007
!!!PDT:
!!!AGN: Sacred; Mass
!!!YEC: Copyright 2022 Narodowy Instytut Fryderyka Chopina (https://polishscores.org)
!!!YEM: License CC-BY-4.0 (https://creativecommons.org/licenses/by/4.0)
!!!SMS-siglum: PL-SA
!!!SMS-shelfmark: 231/A VI 35
!!!SMS-shelfwork: 001-007 M
!!!SMS-variant:
!!!SMS-altvar:
!!!NIFC-rismSourceID: 1001039070
!!!NIFC-rismChildID: 1001039070
!!!NIFC-islandoraID: none
!!!URL-pdf-islandora:
!!!URL-scan: https://bc.bdsandomierz.pl/dlibra/publication/1585/edition/1553/content @EN{Scan in the Sandomierz Diocese Digital Library} @PL{Skany w portalu Cyfrowa Biblioteka Diecezjalna w Sandomierzu}
!!!IIIF:
!!!ONB-nifc: UWAGA: części Litanii: 1. Sinfonia, 2. Kyrie, 3. Pater de caelis, 4. Sancta Maria, 5. Mater amabilis, 6. Speculum iustitiae, 7. Rosa mystica, 8. Salus infirmorum, 9. Regina angelorum, 10. Agnus Dei. Uwaga: wpisać oba teksty.
!!!AIN: 1 bass 2 cor 1 oboe 1 organ 1 soprn 2 violn
!!!key: e
**kern	**dynam	**kern	**dynam	**kern	**dynam	**kern	**kern	**text	**text	**kern	**text	**text	**kern	**kern	**kern	**dynam
*part9	*	*part8	*	*part7	*	*part6	*part5	*	*	*part4	*	*	*part3	*part2	*part1	*
*staff9	*	*staff8	*	*staff7	*	*staff6	*staff5	*	*	*staff4	*	*	*staff3	*staff2	*staff1	*
*I"Fondamento.	*	*I"Violino Secundo.	*	*I"Violino Primo	*	*I"Baſso.	*I"Tenore	*	*	*I"Canto	*	*	*I"Cornu Secundo ex G.	*I"Cornu Primo ex G	*I"Oböa Prima.	*
*I'bc	*	*I'vl II	*	*I'vl I	*	*I'B	*	*I'T	*	*I'S	*	*	*I'cor II	*I'cor I	*I'ob I	*
*ICklav	*	*ICstr	*	*ICstr	*	*ICvox	*	*ICvox	*	*ICvox	*	*	*ICbras	*ICbras	*ICww	*
*Iorgan	*	*Ivioln	*	*Ivioln	*	*Ibass	*	*Itenor	*	*Isoprn	*	*	*Icor	*Icor	*Ioboe	*
*clefF4	*	*clefG2	*	*clefG2	*	*clefF4	*clefC4	*	*	*clefC1	*	*	*clefG2	*clefG2	*clefG2	*
*e:	*	*e:	*	*e:	*	*e:	*e:	*	*	*e:	*	*	*e:	*e:	*e:	*
*	*	*	*	*	*	*	*	*	*	*	*	*	*ITrd-1c-2	*ITrd3c5	*	*
*k[f#]	*	*k[f#]	*	*k[f#]	*	*k[f#]	*k[f#]	*	*	*k[f#]	*	*	*k[f#]	*k[f#]	*k[f#]	*
*M3/4	*	*M3/4	*	*M3/4	*	*M3/4	*M3/4	*	*	*M3/4	*	*	*M3/4	*M3/4	*M3/4	*
=1	=1	=1	=1	=1	=1	=1	=1	=1	=1	=1	=1	=1	=1	=1	=1	=1
*	*	*	*	*Xtuplet	*	*	*	*	*	*	*	*	*	*	*	*
!	!	!	!	!	!	!	!	!	!	!	!	!	!	!	!LO:TX:a:B:t=Andante	!
!LO:TX:a:B:t=andan&colon;	!	!LO:TX:a:B:t=andante.	!	!	!	!	!LO:TX:B:t=Andante	!	!	!	!	!	!	!	!	!
4E\	.	4g/	.	12ee\L	.	2.ryy	2.r	.	.	2.r	.	.	2.ryy	2.ryy	2.ryy	.
.	.	.	.	12gg\	.	.	.	.	.	.	.	.	.	.	.	.
.	.	.	.	12bb\J	.	.	.	.	.	.	.	.	.	.	.	.
8r	.	8r	.	8ee\L	.	.	.	.	.	.	.	.	.	.	.	.
!LO:TX:a:i:t=Solo.	!	!	!	!	!	!	!	!	!	!	!	!	!	!	!	!
8E\L	.	8g/L	.	8ee\J	.	.	.	.	.	.	.	.	.	.	.	.
8G\	.	8b/	.	4ee\	.	.	.	.	.	.	.	.	.	.	.	.
8A\J	.	8cc/J	.	.	.	.	.	.	.	.	.	.	.	.	.	.
=2	=2	=2	=2	=2	=2	=2	=2	=2	=2	=2	=2	=2	=2	=2	=2	=2
!	!	!	!	!	!	!LO:TX:b:i:t=Rosa mystica Tacet	!	!	!	!	!	!	!LO:TX:b:i:t=Rosa Tacet	!LO:TX:b:i:t=Rosa Tacet	!LO:TX:b:i:t=Rosa mystica \nTacet.	!
4B\	.	4f#/	.	12b\L	.	2.ryy	2.r	.	.	2.r	.	.	2.ryy	2.ryy	2.ryy	.
.	.	.	.	12dd#X\	.	.	.	.	.	.	.	.	.	.	.	.
.	.	.	.	12ff#\J	.	.	.	.	.	.	.	.	.	.	.	.
8r	.	8r	.	8b\L	.	.	.	.	.	.	.	.	.	.	.	.
8BB/L	.	8d#X/L	.	8b\J	.	.	.	.	.	.	.	.	.	.	.	.
8C#X/	.	8e/	.	4b\	.	.	.	.	.	.	.	.	.	.	.	.
8D#X/J	.	8f#/J	.	.	.	.	.	.	.	.	.	.	.	.	.	.
=3	=3	=3	=3	=3	=3	=3	=3	=3	=3	=3	=3	=3	=3	=3	=3	=3
4E\	.	4g/	.	12ee\L	.	2.ryy	2.r	.	.	2.r	.	.	2.ryy	2.ryy	2.ryy	.
.	.	.	.	12gg\	.	.	.	.	.	.	.	.	.	.	.	.
.	.	.	.	12bb\J	.	.	.	.	.	.	.	.	.	.	.	.
8r	.	8r	.	8ee\L	.	.	.	.	.	.	.	.	.	.	.	.
8E\L	.	8g/L	.	8ee\J	.	.	.	.	.	.	.	.	.	.	.	.
8G\	.	8b/	.	8gg\L	.	.	.	.	.	.	.	.	.	.	.	.
8A\J	.	8cc/J	.	(16ff#\L	.	.	.	.	.	.	.	.	.	.	.	.
.	.	.	.	16ee\JJ)	.	.	.	.	.	.	.	.	.	.	.	.
=4	=4	=4	=4	=4	=4	=4	=4	=4	=4	=4	=4	=4	=4	=4	=4	=4
*	*	*	*	*tuplet	*	*	*	*	*	*	*	*	*	*	*	*
!	!	!	!	!LO:TX:t=P:problem= klamra łukowa	!	!	!	!	!	!	!	!	!	!	!	!
4B\	.	12f#/L	.	12dd#X\L	.	2.ryy	2.r	.	.	2.r	.	.	2.ryy	2.ryy	2.ryy	.
.	.	12e/	.	12cc\	.	.	.	.	.	.	.	.	.	.	.	.
.	.	12d#X/J	.	12b\J	.	.	.	.	.	.	.	.	.	.	.	.
8B\L	.	4d#/	.	4b\	.	.	.	.	.	.	.	.	.	.	.	.
8A\	.	.	.	.	.	.	.	.	.	.	.	.	.	.	.	.
8G\	.	4r	.	4r	.	.	.	.	.	.	.	.	.	.	.	.
8F#\J	.	.	.	.	.	.	.	.	.	.	.	.	.	.	.	.
=5	=5	=5	=5	=5	=5	=5	=5	=5	=5	=5	=5	=5	=5	=5	=5	=5
*	*	*	*	*Xtuplet	*	*	*	*	*	*	*	*	*	*	*	*
!	!LO:DY:a:t=pia.	!	!	!	!	!	!	!	!	!	!	!	!	!	!	!
!	!	!	!LO:DY:a:t=pia.	!	!	!	!	!	!	!	!	!	!	!	!	!
!	!	!	!	!	!LO:DY:a:t=pia.	!	!	!	!	!	!	!	!	!	!	!
4E\	p	4g/	p	12ee\L	p	2.ryy	2.r	.	.	2.r	.	.	2.ryy	2.ryy	2.ryy	.
.	.	.	.	12gg\	.	.	.	.	.	.	.	.	.	.	.	.
.	.	.	.	12bb\J	.	.	.	.	.	.	.	.	.	.	.	.
8r	.	8r	.	8ee\L	.	.	.	.	.	.	.	.	.	.	.	.
8E\L	.	8g/L	.	8ee\J	.	.	.	.	.	.	.	.	.	.	.	.
8G\	.	8b/	.	4ee\	.	.	.	.	.	.	.	.	.	.	.	.
8A\J	.	8cc/J	.	.	.	.	.	.	.	.	.	.	.	.	.	.
=6	=6	=6	=6	=6	=6	=6	=6	=6	=6	=6	=6	=6	=6	=6	=6	=6
4B\	.	4f#/	.	12b\L	.	2.ryy	2.r	.	.	2.r	.	.	2.ryy	2.ryy	2.ryy	.
.	.	.	.	12dd#X\	.	.	.	.	.	.	.	.	.	.	.	.
.	.	.	.	12ff#\J	.	.	.	.	.	.	.	.	.	.	.	.
8r	.	8r	.	8b\L	.	.	.	.	.	.	.	.	.	.	.	.
8BB/L	.	8d#X/L	.	8b\J	.	.	.	.	.	.	.	.	.	.	.	.
8C#X/	.	8e/	.	4b\	.	.	.	.	.	.	.	.	.	.	.	.
8D#X/J	.	8f#/J	.	.	.	.	.	.	.	.	.	.	.	.	.	.
=7	=7	=7	=7	=7	=7	=7	=7	=7	=7	=7	=7	=7	=7	=7	=7	=7
4E\	.	4g/	.	12ee\L	.	2.ryy	2.r	.	.	2.r	.	.	2.ryy	2.ryy	2.ryy	.
.	.	.	.	12gg\	.	.	.	.	.	.	.	.	.	.	.	.
.	.	.	.	12bb\J	.	.	.	.	.	.	.	.	.	.	.	.
8r	.	8r	.	8ee\L	.	.	.	.	.	.	.	.	.	.	.	.
8E\L	.	8g/L	.	8ee\J	.	.	.	.	.	.	.	.	.	.	.	.
8G\	.	8b/	.	8gg\L	.	.	.	.	.	.	.	.	.	.	.	.
8A\J	.	8cc/J	.	(16ff#\L	.	.	.	.	.	.	.	.	.	.	.	.
.	.	.	.	16ee\JJ)	.	.	.	.	.	.	.	.	.	.	.	.
=8	=8	=8	=8	=8	=8	=8	=8	=8	=8	=8	=8	=8	=8	=8	=8	=8
*	*	*	*	*tuplet	*	*	*	*	*	*	*	*	*	*	*	*
!	!	!LO:TX:t=P:problem= klamra łukowa	!	!LO:TX:t=P:problem= klamra łukowa	!	!	!	!	!	!	!	!	!	!	!	!
4B\	.	12f#/L	.	12dd#X\L	.	2.ryy	2.r	.	.	2.r	.	.	2.ryy	2.ryy	2.ryy	.
.	.	12e/	.	12cc\	.	.	.	.	.	.	.	.	.	.	.	.
.	.	12d#X/J	.	12b\J	.	.	.	.	.	.	.	.	.	.	.	.
8B\L	.	4d#/	.	4b\	.	.	.	.	.	.	.	.	.	.	.	.
8A\	.	.	.	.	.	.	.	.	.	.	.	.	.	.	.	.
8G\	.	4r	.	4r	.	.	.	.	.	.	.	.	.	.	.	.
8F#\J	.	.	.	.	.	.	.	.	.	.	.	.	.	.	.	.
!	!	!	!	!LO:LB:g=original	!	!	!	!	!	!	!	!	!	!	!	!
=9	=9	=9	=9	=9	=9	=9	=9	=9	=9	=9	=9	=9	=9	=9	=9	=9
*	*	*	*	*Xtuplet	*	*	*	*	*	*	*	*	*	*	*	*
!	!LO:DY:a	!	!LO:DY:a	!	!LO:DY:a	!	!	!	!	!	!	!	!	!	!	!
!	!LO:DY:t=for	!	!LO:DY:t=for.	!	!	!	!	!	!	!	!	!	!	!	!	!
!	!	!	!	!	!LO:DY:t=fr.	!	!	!	!	!	!	!	!	!	!	!
4E\	f	4g#X/	f	12ee\L	f	2.ryy	2.r	.	.	2.r	.	.	2.ryy	2.ryy	2.ryy	.
.	.	.	.	12gg#X\	.	.	.	.	.	.	.	.	.	.	.	.
.	.	.	.	12bb\J	.	.	.	.	.	.	.	.	.	.	.	.
8r	.	8r	.	8ee\L	.	.	.	.	.	.	.	.	.	.	.	.
8E\L	.	8g#/L	.	8ddn\J	.	.	.	.	.	.	.	.	.	.	.	.
8F#\	.	8a/	.	4dd\	.	.	.	.	.	.	.	.	.	.	.	.
8G#X\J	.	8b/J	.	.	.	.	.	.	.	.	.	.	.	.	.	.
=10	=10	=10	=10	=10	=10	=10	=10	=10	=10	=10	=10	=10	=10	=10	=10	=10
4A\	.	12e/L	.	12ccn\L	.	2.ryy	2.r	.	.	2.r	.	.	2.ryy	2.ryy	2.ryy	.
.	.	12d/	.	12b\	.	.	.	.	.	.	.	.	.	.	.	.
.	.	12c/J	.	12a\J	.	.	.	.	.	.	.	.	.	.	.	.
8r	.	2c/	.	2a/	.	.	.	.	.	.	.	.	.	.	.	.
8A\L	.	.	.	.	.	.	.	.	.	.	.	.	.	.	.	.
8B\	.	.	.	.	.	.	.	.	.	.	.	.	.	.	.	.
8cn\J	.	.	.	.	.	.	.	.	.	.	.	.	.	.	.	.
=11	=11	=11	=11	=11	=11	=11	=11	=11	=11	=11	=11	=11	=11	=11	=11	=11
4d\	.	4f#/	.	12dd\L	.	2.ryy	2.r	.	.	2.r	.	.	2.ryy	2.ryy	2.ryy	.
.	.	.	.	12ff#\	.	.	.	.	.	.	.	.	.	.	.	.
.	.	.	.	12aa\J	.	.	.	.	.	.	.	.	.	.	.	.
8r	.	8r	.	8dd\L	.	.	.	.	.	.	.	.	.	.	.	.
8D\L	.	8f#/L	.	8cc\J	.	.	.	.	.	.	.	.	.	.	.	.
8E\	.	8gn/	.	4ccT\	.	.	.	.	.	.	.	.	.	.	.	.
8F#\J	.	8a/J	.	.	.	.	.	.	.	.	.	.	.	.	.	.
!LO:LB:g=original	!	!LO:LB:g=original	!	!	!	!	!	!	!	!	!	!	!	!	!	!
=12	=12	=12	=12	=12	=12	=12	=12	=12	=12	=12	=12	=12	=12	=12	=12	=12
*	*	*	*	*tuplet	*	*	*	*	*	*	*	*	*	*	*	*
!	!	!	!	!LO:TX:t=P:problem= klamra łukowa	!	!	!	!	!	!	!	!	!	!	!	!
4G\	.	12d/L	.	12b/L	.	2.ryy	2.r	.	.	2.r	.	.	2.ryy	2.ryy	2.ryy	.
.	.	12c/	.	12a/	.	.	.	.	.	.	.	.	.	.	.	.
.	.	12B/J	.	12g/J	.	.	.	.	.	.	.	.	.	.	.	.
8r	.	2B/	.	2g/	.	.	.	.	.	.	.	.	.	.	.	.
8G\L	.	.	.	.	.	.	.	.	.	.	.	.	.	.	.	.
8D\	.	.	.	.	.	.	.	.	.	.	.	.	.	.	.	.
8BB\J	.	.	.	.	.	.	.	.	.	.	.	.	.	.	.	.
=13	=13	=13	=13	=13	=13	=13	=13	=13	=13	=13	=13	=13	=13	=13	=13	=13
!	!LO:DY:a:t=pia.	!	!LO:DY:a	!	!LO:DY:a:t=pia.	!	!	!	!	!	!	!	!	!	!	!
!	!	!	!LO:DY:a:t=pia&colon;	!	!	!	!	!	!	!	!	!	!	!	!	!
8GG/L	p	4.b\	p	4.dd\	p	2.ryy	2.r	.	.	2.r	.	.	2.ryy	2.ryy	2.ryy	.
8GG/	.	.	.	.	.	.	.	.	.	.	.	.	.	.	.	.
8GG/	.	.	.	.	.	.	.	.	.	.	.	.	.	.	.	.
8GG/	.	(16cc\LL	.	(16ee\LL	.	.	.	.	.	.	.	.	.	.	.	.
.	.	16b\JJ)	.	16dd\JJ)	.	.	.	.	.	.	.	.	.	.	.	.
8GG/	.	4b\	.	4gg\	.	.	.	.	.	.	.	.	.	.	.	.
8GG/J	.	.	.	.	.	.	.	.	.	.	.	.	.	.	.	.
=14	=14	=14	=14	=14	=14	=14	=14	=14	=14	=14	=14	=14	=14	=14	=14	=14
8GG/L	.	4.b\	.	4.dd\	.	2.ryy	2.r	.	.	2.r	.	.	2.ryy	2.ryy	2.ryy	.
8GG/	.	.	.	.	.	.	.	.	.	.	.	.	.	.	.	.
8GG/	.	.	.	.	.	.	.	.	.	.	.	.	.	.	.	.
8GG/	.	(16cc\LL	.	(16ee\LL	.	.	.	.	.	.	.	.	.	.	.	.
.	.	16b\JJ)	.	16dd\JJ)	.	.	.	.	.	.	.	.	.	.	.	.
8GG/	.	4b\	.	4gg\	.	.	.	.	.	.	.	.	.	.	.	.
8GG/J	.	.	.	.	.	.	.	.	.	.	.	.	.	.	.	.
=15	=15	=15	=15	=15	=15	=15	=15	=15	=15	=15	=15	=15	=15	=15	=15	=15
8D\L	.	4.a\	.	4.cc\	.	2.ryy	2.r	.	.	2.r	.	.	2.ryy	2.ryy	2.ryy	.
8D\	.	.	.	.	.	.	.	.	.	.	.	.	.	.	.	.
8D\	.	.	.	.	.	.	.	.	.	.	.	.	.	.	.	.
8D\	.	(16b\LL	.	(16dd\LL	.	.	.	.	.	.	.	.	.	.	.	.
.	.	16a\JJ)	.	16cc\JJ)	.	.	.	.	.	.	.	.	.	.	.	.
8D\	.	4cc\	.	4aa\	.	.	.	.	.	.	.	.	.	.	.	.
8D\J	.	.	.	.	.	.	.	.	.	.	.	.	.	.	.	.
=16	=16	=16	=16	=16	=16	=16	=16	=16	=16	=16	=16	=16	=16	=16	=16	=16
8D\L	.	4.a\	.	4.cc\	.	2.ryy	2.r	.	.	2.r	.	.	2.ryy	2.ryy	2.ryy	.
8D\	.	.	.	.	.	.	.	.	.	.	.	.	.	.	.	.
8D\	.	.	.	.	.	.	.	.	.	.	.	.	.	.	.	.
8D\	.	(16b\LL	.	(16dd\LL	.	.	.	.	.	.	.	.	.	.	.	.
.	.	16a\JJ)	.	16cc\JJ)	.	.	.	.	.	.	.	.	.	.	.	.
8D\	.	4cc\	.	4aa\	.	.	.	.	.	.	.	.	.	.	.	.
8D\J	.	.	.	.	.	.	.	.	.	.	.	.	.	.	.	.
=17	=17	=17	=17	=17	=17	=17	=17	=17	=17	=17	=17	=17	=17	=17	=17	=17
8GG/L	.	8b/L	.	(16gg\LL	.	2.ryy	2.r	.	.	2.r	.	.	2.ryy	2.ryy	2.ryy	.
.	.	.	.	16dd\)	.	.	.	.	.	.	.	.	.	.	.	.
8C/J	.	8a/J	.	(16ee\	.	.	.	.	.	.	.	.	.	.	.	.
.	.	.	.	16cc\JJ)	.	.	.	.	.	.	.	.	.	.	.	.
4D/	.	4g/	.	4b/	.	.	.	.	.	.	.	.	.	.	.	.
4DD/	.	4f#t/	.	4aT/	.	.	.	.	.	.	.	.	.	.	.	.
=18	=18	=18	=18	=18	=18	=18	=18	=18	=18	=18	=18	=18	=18	=18	=18	=18
.	.	8qqf#/	.	8qqa/	.	.	.	.	.	.	.	.	.	.	.	.
4GG/	.	4g/	.	4g/	.	2.ryy	2.r	.	.	2.r	.	.	2.ryy	2.ryy	2.ryy	.
8G\L	.	4r	.	4r	.	.	.	.	.	.	.	.	.	.	.	.
8A\	.	.	.	.	.	.	.	.	.	.	.	.	.	.	.	.
8G\	.	4r	.	4r	.	.	.	.	.	.	.	.	.	.	.	.
8F#\J	.	.	.	.	.	.	.	.	.	.	.	.	.	.	.	.
!	!	!	!	!LO:LB:g=original	!	!	!	!	!	!	!	!	!	!	!	!
=19	=19	=19	=19	=19	=19	=19	=19	=19	=19	=19	=19	=19	=19	=19	=19	=19
!	!LO:DY:a:t=for.	!	!	!	!	!	!	!	!	!	!	!	!	!	!	!
!	!	!	!LO:DY:a:t=for	!	!	!	!	!	!	!	!	!	!	!	!	!
!	!	!	!	!	!LO:DY:a:t=for&colon;	!	!	!	!	!	!	!	!	!	!	!
4E\	f	4g#X/	f	8.ee\L	f	2.ryy	2.r	.	.	2.r	.	.	2.ryy	2.ryy	2.ryy	.
.	.	.	.	16ee\Jk	.	.	.	.	.	.	.	.	.	.	.	.
8r	.	8r	.	4.ee\	.	.	.	.	.	.	.	.	.	.	.	.
8E\L	.	8g#/L	.	.	.	.	.	.	.	.	.	.	.	.	.	.
8F#\	.	8a/	.	.	.	.	.	.	.	.	.	.	.	.	.	.
8G#X\J	.	8b/J	.	8dd\	.	.	.	.	.	.	.	.	.	.	.	.
=20	=20	=20	=20	=20	=20	=20	=20	=20	=20	=20	=20	=20	=20	=20	=20	=20
*	*	*Xtuplet	*	*Xtuplet	*	*	*	*	*	*	*	*	*	*	*	*
4A\	.	12e/L	.	12ccn\L	.	2.ryy	2.r	.	.	2.r	.	.	2.ryy	2.ryy	2.ryy	.
.	.	12d/	.	12b\	.	.	.	.	.	.	.	.	.	.	.	.
.	.	12c/J	.	12a\J	.	.	.	.	.	.	.	.	.	.	.	.
8r	.	4c/	.	4a/	.	.	.	.	.	.	.	.	.	.	.	.
8c\L	.	.	.	.	.	.	.	.	.	.	.	.	.	.	.	.
8A\	.	4r	.	4r	.	.	.	.	.	.	.	.	.	.	.	.
8Gn\J	.	.	.	.	.	.	.	.	.	.	.	.	.	.	.	.
=21	=21	=21	=21	=21	=21	=21	=21	=21	=21	=21	=21	=21	=21	=21	=21	=21
4F#\	.	4a/	.	8.dd\L	.	2.ryy	2.r	.	.	2.r	.	.	2.ryy	2.ryy	2.ryy	.
.	.	.	.	16dd\Jk	.	.	.	.	.	.	.	.	.	.	.	.
8r	.	8r	.	4.dd\	.	.	.	.	.	.	.	.	.	.	.	.
8D\L	.	8f#/L	.	.	.	.	.	.	.	.	.	.	.	.	.	.
8E\	.	8gn/	.	.	.	.	.	.	.	.	.	.	.	.	.	.
8F#\J	.	8a/J	.	8cc\	.	.	.	.	.	.	.	.	.	.	.	.
=22	=22	=22	=22	=22	=22	=22	=22	=22	=22	=22	=22	=22	=22	=22	=22	=22
*	*	*	*	*tuplet	*	*	*	*	*	*	*	*	*	*	*	*
!	!	!	!	!LO:TX:t=P:problem= klamra łukowa	!	!	!	!	!	!	!	!	!	!	!	!
4G\	.	(12d/L	.	12b/L	.	2.ryy	2.r	.	.	2.r	.	.	2.ryy	2.ryy	2.ryy	.
.	.	12c/)	.	12a/	.	.	.	.	.	.	.	.	.	.	.	.
.	.	12B/J	.	12g/J	.	.	.	.	.	.	.	.	.	.	.	.
8r	.	4B/	.	4g/	.	.	.	.	.	.	.	.	.	.	.	.
8A\L	.	.	.	.	.	.	.	.	.	.	.	.	.	.	.	.
8G\	.	4r	.	4r	.	.	.	.	.	.	.	.	.	.	.	.
8F#\J	.	.	.	.	.	.	.	.	.	.	.	.	.	.	.	.
!LO:LB:g=original	!	!	!	!	!	!	!	!	!	!	!	!	!	!	!	!
=23	=23	=23	=23	=23	=23	=23	=23	=23	=23	=23	=23	=23	=23	=23	=23	=23
4E\	.	8.b/L	.	8.gg\L	.	2.ryy	2.r	.	.	2.r	.	.	2.ryy	2.ryy	2.ryy	.
.	.	16b/Jk	.	16gg\Jk	.	.	.	.	.	.	.	.	.	.	.	.
8r	.	4.b/	.	4.gg\	.	.	.	.	.	.	.	.	.	.	.	.
8E\L	.	.	.	.	.	.	.	.	.	.	.	.	.	.	.	.
8A\	.	.	.	.	.	.	.	.	.	.	.	.	.	.	.	.
8A#X\J	.	(16a/LL	.	(16ff#\LL	.	.	.	.	.	.	.	.	.	.	.	.
.	.	16g/JJ)	.	16ee\JJ)	.	.	.	.	.	.	.	.	.	.	.	.
=24	=24	=24	=24	=24	=24	=24	=24	=24	=24	=24	=24	=24	=24	=24	=24	=24
4B\	.	4gT/	.	4eeT\	.	2.ryy	2.r	.	.	2.r	.	.	2.ryy	2.ryy	2.ryy	.
4BB/	.	4f#/	.	4dd#X\	.	.	.	.	.	.	.	.	.	.	.	.
4BB/	.	4r	.	4r	.	.	.	.	.	.	.	.	.	.	.	.
=25	=25	=25	=25	=25	=25	=25	=25	=25	=25	=25	=25	=25	=25	=25	=25	=25
8BB/L	.	(16f#/LL	.	(16dd\LL	.	2.ryy	2.r	.	.	2.r	.	.	2.ryy	2.ryy	2.ryy	.
.	.	16g/JJ)	.	16ee\JJ)	.	.	.	.	.	.	.	.	.	.	.	.
8BB/	.	4f#/	.	4dd\	.	.	.	.	.	.	.	.	.	.	.	.
8BB/	.	.	.	.	.	.	.	.	.	.	.	.	.	.	.	.
8BB/	.	8g/	.	8ee\	.	.	.	.	.	.	.	.	.	.	.	.
.	.	8qqg/	.	8qqee/	.	.	.	.	.	.	.	.	.	.	.	.
8BB/	.	4a/	.	4ff#\	.	.	.	.	.	.	.	.	.	.	.	.
8BB/J	.	.	.	.	.	.	.	.	.	.	.	.	.	.	.	.
=26	=26	=26	=26	=26	=26	=26	=26	=26	=26	=26	=26	=26	=26	=26	=26	=26
8BB/L	.	(16f#/LL	.	(16a/LL	.	2.ryy	2.r	.	.	2.r	.	.	2.ryy	2.ryy	2.ryy	.
.	.	16g/JJ)	.	16b/JJ)	.	.	.	.	.	.	.	.	.	.	.	.
8BB/	.	4f#/	.	4a/	.	.	.	.	.	.	.	.	.	.	.	.
8BB/	.	.	.	.	.	.	.	.	.	.	.	.	.	.	.	.
8BB/	.	8g/	.	8b/	.	.	.	.	.	.	.	.	.	.	.	.
.	.	8qqg/	.	8qqb/	.	.	.	.	.	.	.	.	.	.	.	.
8BB/	.	4a/	.	4cc/	.	.	.	.	.	.	.	.	.	.	.	.
8BB/J	.	.	.	.	.	.	.	.	.	.	.	.	.	.	.	.
=27	=27	=27	=27	=27	=27	=27	=27	=27	=27	=27	=27	=27	=27	=27	=27	=27
8E\L	.	8g/L	.	(16b\LL	.	2.ryy	2.r	.	.	2.r	.	.	2.ryy	2.ryy	2.ryy	.
.	.	.	.	16ee\)	.	.	.	.	.	.	.	.	.	.	.	.
8A\J	.	8f#/J	.	(16cc\	.	.	.	.	.	.	.	.	.	.	.	.
.	.	.	.	16a\JJ)	.	.	.	.	.	.	.	.	.	.	.	.
4B\	.	4e/	.	4g/	.	.	.	.	.	.	.	.	.	.	.	.
4BB/	.	4d#X/	.	4f#t/	.	.	.	.	.	.	.	.	.	.	.	.
!	!	!	!	!LO:LB:g=original	!	!	!	!	!	!	!	!	!	!	!	!
=28	=28	=28	=28	=28	=28	=28	=28	=28	=28	=28	=28	=28	=28	=28	=28	=28
!	!	!	!LO:DY:a:t=pia&colon;	!	!LO:DY:a:t=pia..	!	!	!	!	!	!	!	!	!	!	!
!	!LO:DY:a:t=pia	!	!	!	!	!	!	!	!	!	!	!	!	!	!	!
8BB/L	p	(16f#/LL	p	(16dd\LL	p	2.ryy	2.r	.	.	2.r	.	.	2.ryy	2.ryy	2.ryy	.
.	.	16g/JJ)	.	16ee\JJ)	.	.	.	.	.	.	.	.	.	.	.	.
8BB/	.	4f#/	.	4dd\	.	.	.	.	.	.	.	.	.	.	.	.
8BB/	.	.	.	.	.	.	.	.	.	.	.	.	.	.	.	.
8BB/	.	8g/	.	8ee\	.	.	.	.	.	.	.	.	.	.	.	.
.	.	8qqg/	.	8qqee/	.	.	.	.	.	.	.	.	.	.	.	.
8BB/	.	4a/	.	4ff#\	.	.	.	.	.	.	.	.	.	.	.	.
8BB/J	.	.	.	.	.	.	.	.	.	.	.	.	.	.	.	.
=29	=29	=29	=29	=29	=29	=29	=29	=29	=29	=29	=29	=29	=29	=29	=29	=29
8BB/L	.	(16f#/LL	.	(16a\LL	.	2.ryy	2.r	.	.	2.r	.	.	2.ryy	2.ryy	2.ryy	.
.	.	16g/JJ)	.	16b\JJ	.	.	.	.	.	.	.	.	.	.	.	.
8BB/	.	4f#/	.	4a\)	.	.	.	.	.	.	.	.	.	.	.	.
8BB/	.	.	.	.	.	.	.	.	.	.	.	.	.	.	.	.
8BB/	.	8g/	.	8b\	.	.	.	.	.	.	.	.	.	.	.	.
.	.	8qqg/	.	8qqb/	.	.	.	.	.	.	.	.	.	.	.	.
8BB/	.	4a/	.	4cc\	.	.	.	.	.	.	.	.	.	.	.	.
8BB/J	.	.	.	.	.	.	.	.	.	.	.	.	.	.	.	.
=30	=30	=30	=30	=30	=30	=30	=30	=30	=30	=30	=30	=30	=30	=30	=30	=30
8E\L	.	8g/L	.	(16b\LL	.	2.ryy	2.r	.	.	2.r	.	.	2.ryy	2.ryy	2.ryy	.
.	.	.	.	16ee\)	.	.	.	.	.	.	.	.	.	.	.	.
8A\J	.	8f#/J	.	(16cc\	.	.	.	.	.	.	.	.	.	.	.	.
.	.	.	.	16a\JJ)	.	.	.	.	.	.	.	.	.	.	.	.
4B\	.	4e/	.	4g/	.	.	.	.	.	.	.	.	.	.	.	.
!	!LO:DY:a:t=for	!	!	!	!	!	!	!	!	!	!	!	!	!	!	!
4BB/	f	4d#X/	.	4f#t/	.	.	.	.	.	.	.	.	.	.	.	.
=31	=31	=31	=31	=31	=31	=31	=31	=31	=31	=31	=31	=31	=31	=31	=31	=31
!	!	!LO:TX:t=P:problem=mixed beam	!	!LO:TX:t=P:problem=mixed beam	!	!	!	!	!	!	!	!	!	!	!	!
!	!	!	!LO:DY:a:t=for	!	!	!	!	!	!	!	!	!	!	!	!	!
!	!	!	!	!	!LO:DY:a:t=for.	!	!	!	!	!	!	!	!	!	!	!
4E;\	.	16e/LL	f	16e/LL	f	2.ryy	2.r	.	.	2.r	.	.	2.ryy	2.ryy	2.ryy	.
.	.	16ee\	.	16ee\	.	.	.	.	.	.	.	.	.	.	.	.
.	.	16b\	.	16b\	.	.	.	.	.	.	.	.	.	.	.	.
.	.	16g\JJ	.	16g\JJ	.	.	.	.	.	.	.	.	.	.	.	.
!	!	!LO:TX:t=P:problem=mixed beam	!	!LO:TX:t=P:problem=mixed beam	!	!	!	!	!	!	!	!	!	!	!	!
4r	.	16e/LL	.	16e/LL	.	.	.	.	.	.	.	.	.	.	.	.
.	.	16ee\	.	16ee\	.	.	.	.	.	.	.	.	.	.	.	.
.	.	16b\	.	16b\	.	.	.	.	.	.	.	.	.	.	.	.
.	.	16g\JJ	.	16g\JJ	.	.	.	.	.	.	.	.	.	.	.	.
4r	.	4e;;/	.	4e;;/	.	.	.	.	.	.	.	.	.	.	.	.
=32	=32	=32	=32	=32	=32	=32	=32	=32	=32	=32	=32	=32	=32	=32	=32	=32
*	*	*	*	*Xtuplet	*	*	*	*	*	*	*	*	*	*	*	*
!	!LO:DY:a	!	!	!	!LO:DY:a:t=pia&colon;	!	!	!	!	!	!	!	!	!	!	!
!	!LO:DY:t=pia&colon;	!	!	!	!	!	!	!	!	!	!	!	!	!	!	!
4E\	p	4g/	.	12ee\L	p	2.ryy	4e\	Ro-	Je-	4ee\	Ro-	Je-	2.ryy	2.ryy	2.ryy	.
.	.	.	.	12gg\	.	.	.	.	.	.	.	.	.	.	.	.
.	.	.	.	12bb\J	.	.	.	.	.	.	.	.	.	.	.	.
*	*	*	*	*	*	*	*2\right	*	*	*2\right	*	*	*	*	*	*
8r	.	8r	.	8ee\L	.	.	2e\	-sa	-su	2ee\	-sa	-su	.	.	.	.
8E\L	.	8g/L	.	8ee\J	.	.	.	.	.	.	.	.	.	.	.	.
8G\	.	8b/	.	4ee\	.	.	.	.	.	.	.	.	.	.	.	.
8A\J	.	8cc/J	.	.	.	.	.	.	.	.	.	.	.	.	.	.
!	!	!LO:LB:g=original	!	!	!	!	!	!	!	!	!	!	!	!	!	!
=33	=33	=33	=33	=33	=33	=33	=33	=33	=33	=33	=33	=33	=33	=33	=33	=33
*	*	*	*	*tuplet	*	*	*	*	*	*	*	*	*	*	*	*
4B\	.	4f#/	.	12b\L	.	2.ryy	8f#\	mi-	ho-	8ff#\	my-	ho-	2.ryy	2.ryy	2.ryy	.
.	.	.	.	12dd#X\	.	.	.	.	.	.	.	.	.	.	.	.
.	.	.	.	.	.	.	8d#X\	-sti-	.	8dd#X\	-sti-	.	.	.	.	.
.	.	.	.	12ff#\J	.	.	.	.	.	.	.	.	.	.	.	.
8r	.	8r	.	8b\L	.	.	2Bt\	-ca	-no-	2bt\	-ca	-no-	.	.	.	.
8BB/L	.	8d#X/L	.	8b\J	.	.	.	.	.	.	.	.	.	.	.	.
8C#X/	.	8e/	.	4b\	.	.	.	.	.	.	.	.	.	.	.	.
8D/J	.	8f#/J	.	.	.	.	.	.	.	.	.	.	.	.	.	.
*	*	*	*	*Xtuplet	*	*	*	*	*	*	*	*	*	*	*	*
=34	=34	=34	=34	=34	=34	=34	=34	=34	=34	=34	=34	=34	=34	=34	=34	=34
4E\	.	4g/	.	12ee\L	.	2.ryy	4e\	O-	-ra-	4ee\	o-	-ra-	2.ryy	2.ryy	2.ryy	.
.	.	.	.	12gg\	.	.	.	.	.	.	.	.	.	.	.	.
.	.	.	.	12bb\J	.	.	.	.	.	.	.	.	.	.	.	.
8r	.	8r	.	8ee\L	.	.	4g\	-ra	.	4gg\	-ra	.	.	.	.	.
8E\L	.	8g/L	.	8ee\J	.	.	.	.	.	.	.	.	.	.	.	.
8G\	.	8b/	.	8gg\L	.	.	8g\L	.	.	8gg\L	pro	.	.	.	.	.
8A\J	.	8cc/J	.	(16ff#\L	.	.	(16f#\L	pro	.	(16ff#\L	.	.	.	.	.	.
.	.	.	.	16ee\JJ)	.	.	16e\JJ)	.	.	16ee\JJ)	.	.	.	.	.	.
!LO:LB:g=original	!	!	!	!	!	!	!	!	!	!	!	!	!	!	!	!
=35	=35	=35	=35	=35	=35	=35	=35	=35	=35	=35	=35	=35	=35	=35	=35	=35
*	*	*	*	*tuplet	*	*	*	*	*	*	*	*	*	*	*	*
!	!	!	!	!LO:TX:t=P:problem= klamra łukowa	!	!	!	!	!	!	!	!	!	!	!	!
4B\	.	12f#/L	.	12dd#X\L	.	2.ryy	12d#X\L	no-	.	12dd#X\L	no-	.	2.ryy	2.ryy	2.ryy	.
.	.	12e/	.	12cc\	.	.	12c\	.	-bi-	12cc\	.	.	.	.	.	.
.	.	12d#X/J	.	12b\J	.	.	12B\J	.	.	12b\J	.	-bi-	.	.	.	.
8B\L	.	4d#/	.	4b\	.	.	4B\	-bis	-lis	4b\	-bis	-lis	.	.	.	.
8A\	.	.	.	.	.	.	.	.	.	.	.	.	.	.	.	.
8G\	.	4r	.	4r	.	.	4r	.	.	4r	.	.	.	.	.	.
8F#\J	.	.	.	.	.	.	.	.	.	.	.	.	.	.	.	.
=36	=36	=36	=36	=36	=36	=36	=36	=36	=36	=36	=36	=36	=36	=36	=36	=36
*	*	*	*	*Xtuplet	*	*	*	*	*	*	*	*	*	*	*	*
4E\	.	4g/	.	12ee\L	.	2.ryy	2.r	.	.	2.r	.	.	2.ryy	2.ryy	2.ryy	.
.	.	.	.	12gg\	.	.	.	.	.	.	.	.	.	.	.	.
.	.	.	.	12bb\J	.	.	.	.	.	.	.	.	.	.	.	.
8r	.	8r	.	8ee\L	.	.	.	.	.	.	.	.	.	.	.	.
8E\L	.	8g/L	.	8ee\J	.	.	.	.	.	.	.	.	.	.	.	.
8G\	.	8b/	.	4ee\	.	.	.	.	.	.	.	.	.	.	.	.
8A\J	.	8cc/J	.	.	.	.	.	.	.	.	.	.	.	.	.	.
!	!	!	!	!LO:LB:g=original	!	!	!	!	!	!	!	!	!	!	!	!
=37	=37	=37	=37	=37	=37	=37	=37	=37	=37	=37	=37	=37	=37	=37	=37	=37
!	!	!	!	!	!	!	!LO:TX:a:t=6	!	!	!	!	!	!	!	!	!
4B\	.	4f#/	.	12b\L	.	2.ryy	2.r	.	.	2.r	.	.	2.ryy	2.ryy	2.ryy	.
.	.	.	.	12dd#X\	.	.	.	.	.	.	.	.	.	.	.	.
.	.	.	.	12ff#\J	.	.	.	.	.	.	.	.	.	.	.	.
8r	.	8r	.	8b\L	.	.	.	.	.	.	.	.	.	.	.	.
8BB/L	.	8d#X/L	.	8b\J	.	.	.	.	.	.	.	.	.	.	.	.
8C#X/	.	8e/	.	4b\	.	.	.	.	.	.	.	.	.	.	.	.
8D#X/J	.	8f#/J	.	.	.	.	.	.	.	.	.	.	.	.	.	.
=38	=38	=38	=38	=38	=38	=38	=38	=38	=38	=38	=38	=38	=38	=38	=38	=38
4E\	.	4g/	.	12ee\L	.	2.ryy	2.r	.	.	2.r	.	.	2.ryy	2.ryy	2.ryy	.
.	.	.	.	12gg\	.	.	.	.	.	.	.	.	.	.	.	.
.	.	.	.	12bb\J	.	.	.	.	.	.	.	.	.	.	.	.
8r	.	8r	.	8ee\L	.	.	.	.	.	.	.	.	.	.	.	.
8E\L	.	8g/L	.	8ee\J	.	.	.	.	.	.	.	.	.	.	.	.
8G\	.	8b/	.	8gg\L	.	.	.	.	.	.	.	.	.	.	.	.
8A\J	.	8cc/J	.	(16ff#\L	.	.	.	.	.	.	.	.	.	.	.	.
.	.	.	.	16ee\JJ)	.	.	.	.	.	.	.	.	.	.	.	.
=39	=39	=39	=39	=39	=39	=39	=39	=39	=39	=39	=39	=39	=39	=39	=39	=39
*	*	*	*	*tuplet	*	*	*	*	*	*	*	*	*	*	*	*
!	!	!	!	!LO:TX:t=P:problem= klamra łukowa	!	!	!	!	!	!	!	!	!	!	!	!LO:DY:a
!	!	!	!	!	!	!	!	!	!	!	!	!	!	!	!	!LO:DY:t=p.
4B\	.	12f#/L	.	12dd#X\L	.	2.ryy	2.r	.	.	2.r	.	.	2.ryy	2.ryy	2.ryy	p
.	.	12e/	.	12cc\	.	.	.	.	.	.	.	.	.	.	.	.
.	.	12d#X/J	.	12b\J	.	.	.	.	.	.	.	.	.	.	.	.
8B\L	.	4d#/	.	4b\	.	.	.	.	.	.	.	.	.	.	.	.
8A\	.	.	.	.	.	.	.	.	.	.	.	.	.	.	.	.
8G\	.	4r	.	4r	.	.	.	.	.	.	.	.	.	.	.	.
8F#\J	.	.	.	.	.	.	.	.	.	.	.	.	.	.	.	.
=40	=40	=40	=40	=40	=40	=40	=40	=40	=40	=40	=40	=40	=40	=40	=40	=40
*	*	*	*	*Xtuplet	*	*	*	*	*	*	*	*	*	*	*	*
4E\	.	4g#X/	.	12ee'\L	.	2.ryy	2.r	.	.	4ee\	Tur-	Je-	2.ryy	2.ryy	2.ryy	.
.	.	.	.	12gg#X\	.	.	.	.	.	.	.	.	.	.	.	.
.	.	.	.	12bb\J	.	.	.	.	.	.	.	.	.	.	.	.
8r	.	8r	.	8ee\L	.	.	.	.	.	8ee\L	-ris	-su	.	.	.	.
8E\L	.	8g#/L	.	8ddn\J	.	.	.	.	.	8ddn\J	.	.	.	.	.	.
8F#\	.	8a/	.	4ddT\	.	.	.	.	.	4dd\	da-	hu-	.	.	.	.
8G#X\J	.	8b/J	.	.	.	.	.	.	.	.	.	.	.	.	.	.
=41	=41	=41	=41	=41	=41	=41	=41	=41	=41	=41	=41	=41	=41	=41	=41	=41
*	*	*	*	*	*	*	*	*	*	*Xtuplet	*	*	*	*	*	*
4A\	.	12e/L	.	12ccn\L	.	2.ryy	2.r	.	.	12cc\L	-vi-	-mi-	2.ryy	2.ryy	2.ryy	.
.	.	12d/	.	12b\	.	.	.	.	.	12b\J	.	-li-	.	.	.	.
.	.	12c/J	.	12a\J	.	.	.	.	.	12a\	-di-	.	.	.	.	.
8r	.	4c/	.	4a/	.	.	.	.	.	4a\	-ca	-me	.	.	.	.
8A\L	.	.	.	.	.	.	.	.	.	.	.	.	.	.	.	.
8B\	.	4r	.	4r	.	.	.	.	.	4r	.	.	.	.	.	.
8cn\J	.	.	.	.	.	.	.	.	.	.	.	.	.	.	.	.
!	!	!	!	!	!	!	!LO:LB:g=original	!	!	!	!	!	!	!	!	!
=42	=42	=42	=42	=42	=42	=42	=42	=42	=42	=42	=42	=42	=42	=42	=42	=42
4d\	.	4f#/	.	12dd\L	.	2.ryy	4dn\	Tu-	Je-	2.r	.	.	2.ryy	2.ryy	2.ryy	.
.	.	.	.	12ff#\	.	.	.	.	.	.	.	.	.	.	.	.
.	.	.	.	12aa\J	.	.	.	.	.	.	.	.	.	.	.	.
8r	.	8r	.	8dd\L	.	.	(8d\L	-ris	.	.	.	.	.	.	.	.
8D\L	.	8f#/L	.	8cc\J	.	.	8c\J)	.	.	.	.	.	.	.	.	.
8E\	.	8gn/	.	4ccT\	.	.	4c\	e-	-su	.	.	.	.	.	.	.
8F#\J	.	8a/J	.	.	.	.	.	.	.	.	.	.	.	.	.	.
=43	=43	=43	=43	=43	=43	=43	=43	=43	=43	=43	=43	=43	=43	=43	=43	=43
*	*	*	*	*tuplet	*	*	*	*	*	*	*	*	*	*	*	*
!	!	!	!	!LO:TX:t=P:problem= klamra łukowa	!	!	!	!	!	!	!	!	!	!	!	!
4G\	.	12d/L	.	12b/L	.	2.ryy	12B\L	-bur-	pau-	2.r	.	.	2.ryy	2.ryy	2.ryy	.
.	.	12c/	.	12a/	.	.	12A\J	.	-per-	.	.	.	.	.	.	.
.	.	12B/J	.	12g/J	.	.	12G\	-ne-	-ri-	.	.	.	.	.	.	.
8r	.	4B/	.	4g/	.	.	4G\	-a	-me	.	.	.	.	.	.	.
8G\L	.	.	.	.	.	.	.	.	.	.	.	.	.	.	.	.
8D\	.	4r	.	4r	.	.	4r	.	.	.	.	.	.	.	.	.
8BB\J	.	.	.	.	.	.	.	.	.	.	.	.	.	.	.	.
!	!	!LO:LB:g=original	!	!	!	!	!	!	!	!LO:LB:g=original	!	!	!	!	!	!
=44	=44	=44	=44	=44	=44	=44	=44	=44	=44	=44	=44	=44	=44	=44	=44	=44
8GG/L	.	4.b\	.	4.dd\	.	2.ryy	4.B\	O-	mi-	4.dd\	o-	mi-	2.ryy	2.ryy	2.ryy	.
8GG/	.	.	.	.	.	.	.	.	.	.	.	.	.	.	.	.
8GG/	.	.	.	.	.	.	.	.	.	.	.	.	.	.	.	.
8GG/	.	(16cc\LL	.	(16ee\LL	.	.	16c\LL	.	.	(16ee\LL	.	.	.	.	.	.
.	.	16b\JJ)	.	16dd\JJ)	.	.	16B\JJ	.	.	16dd\JJ)	.	.	.	.	.	.
8GG/	.	4b\	.	4gg\	.	.	4B\	-ra	-se-	4dd\	-ra	-se-	.	.	.	.
8GG/J	.	.	.	.	.	.	.	.	.	.	.	.	.	.	.	.
=45	=45	=45	=45	=45	=45	=45	=45	=45	=45	=45	=45	=45	=45	=45	=45	=45
8GG/L	.	4.b\	.	4.dd\	.	2.ryy	4.B\	O-	.	4.dd\	o-	-re-	2.ryy	2.ryy	2.ryy	.
8GG/	.	.	.	.	.	.	.	.	.	.	.	.	.	.	.	.
8GG/	.	.	.	.	.	.	.	.	.	.	.	.	.	.	.	.
8GG/	.	(16cc\LL	.	(16ee\LL	.	.	16c\LL	.	-re-	(16ee\LL	.	.	.	.	.	.
.	.	16b\JJ)	.	16dd\JJ)	.	.	16B\JJ	.	.	16dd\JJ)	.	.	.	.	.	.
8GG/	.	4b\	.	4gg\	.	.	4B\	-ra	-re	4dd\	-ra	-re	.	.	.	.
8GG/J	.	.	.	.	.	.	.	.	.	.	.	.	.	.	.	.
!LO:LB:g=original	!	!	!	!LO:LB:g=original	!	!	!	!	!	!	!	!	!	!	!	!
=46	=46	=46	=46	=46	=46	=46	=46	=46	=46	=46	=46	=46	=46	=46	=46	=46
8D\L	.	4.a\	.	4.cc\	.	2.ryy	4.A\	O-	.	4.cc\	o-	mi-	2.ryy	2.ryy	2.ryy	.
8D\	.	.	.	.	.	.	.	.	.	.	.	.	.	.	.	.
8D\	.	.	.	.	.	.	.	.	.	.	.	.	.	.	.	.
8D\	.	(16b\LL	.	(16dd\LL	.	.	16B\LL	.	mi-	(16dd\LL	.	.	.	.	.	.
.	.	16a\JJ)	.	16cc\JJ)	.	.	16A\JJ	.	.	16cc\JJ)	.	.	.	.	.	.
8D\	.	4cc\	.	4aa\	.	.	4A\	-ra	-re-	4cc\	-ra	-se-	.	.	.	.
8D\J	.	.	.	.	.	.	.	.	.	.	.	.	.	.	.	.
=47	=47	=47	=47	=47	=47	=47	=47	=47	=47	=47	=47	=47	=47	=47	=47	=47
8D\L	.	4.a\	.	4.cc\	.	2.ryy	4.A\	O-	-re-	4.cc\	o-	-re-	2.ryy	2.ryy	2.ryy	.
8D\	.	.	.	.	.	.	.	.	.	.	.	.	.	.	.	.
8D\	.	.	.	.	.	.	.	.	.	.	.	.	.	.	.	.
8D\	.	(16b\LL	.	(16dd\LL	.	.	16B\LL	.	.	16dd\LL	.	.	.	.	.	.
.	.	16a\JJ)	.	16cc\JJ)	.	.	16A\JJ	.	-re	16cc\JJ	.	.	.	.	.	.
8D\	.	4cc\	.	4aa\	.	.	4A\	-ra	.	4cc\	-ra	-re	.	.	.	.
8D\J	.	.	.	.	.	.	.	.	.	.	.	.	.	.	.	.
!	!	!	!	!	!	!	!LO:LB:g=original	!	!	!	!	!	!	!	!	!
=48	=48	=48	=48	=48	=48	=48	=48	=48	=48	=48	=48	=48	=48	=48	=48	=48
4GG/	.	[4b\	.	[4gg\	.	2.ryy	4B\	O-	no-	4gg\	o-	no-	2.ryy	2.ryy	2.ryy	.
4r	.	8b\L]	.	8gg\L]	.	.	4B\	-ra	.	(8gg\L	-ra	.	.	.	.	.
.	.	(8b\	.	8b\	.	.	.	.	.	8dd\J)	.	.	.	.	.	.
4GG/	.	8a\	.	8a\	.	.	8A\L	pro	.	(8cc\L	pro	.	.	.	.	.
.	.	8g\J)	.	8g\J	.	.	8G\J	.	.	8b\J)	.	.	.	.	.	.
=49	=49	=49	=49	=49	=49	=49	=49	=49	=49	=49	=49	=49	=49	=49	=49	=49
4D\	.	4gT/	.	4bt/	.	2.ryy	4G/	no-	.	4bt\	no-	.	2.ryy	2.ryy	2.ryy	.
8D\L	.	4f#/	.	4a/	.	.	4F#/	-bis	-bis	4a\	-biſ	-bis	.	.	.	.
8d\	.	.	.	.	.	.	.	.	.	.	.	.	.	.	.	.
8A\	.	4r	.	4r	.	.	4r	.	.	4r	.	.	.	.	.	.
8F#\J	.	.	.	.	.	.	.	.	.	.	.	.	.	.	.	.
=50	=50	=50	=50	=50	=50	=50	=50	=50	=50	=50	=50	=50	=50	=50	=50	=50
*	*	*	*	*Xtuplet	*	*	*	*	*	*	*	*	*	*	*	*
4D\	.	8a\L	.	12cc\L	.	2.ryy	2.A\	O-	mi-	2.cc\	o-	mise-	2.ryy	2.ryy	2.ryy	.
.	.	.	.	12ff#\	.	.	.	.	.	.	.	.	.	.	.	.
.	.	8cc\J	.	.	.	.	.	.	.	.	.	.	.	.	.	.
.	.	.	.	12aa\J	.	.	.	.	.	.	.	.	.	.	.	.
8r	.	8a/L	.	8cc\L	.	.	.	.	.	.	.	.	.	.	.	.
8D\L	.	8a/J	.	8cc\J	.	.	.	.	.	.	.	.	.	.	.	.
8E\	.	4a/	.	4cc\	.	.	.	.	.	.	.	.	.	.	.	.
8F#\J	.	.	.	.	.	.	.	.	.	.	.	.	.	.	.	.
=51	=51	=51	=51	=51	=51	=51	=51	=51	=51	=51	=51	=51	=51	=51	=51	=51
4G\	.	8g/L	.	(8b\L	.	2.ryy	(8G\L	.	-se-	(8b\L	.	-re-	2.ryy	2.ryy	2.ryy	.
.	.	8a/J	.	8cc\J)	.	.	8A\J)	.	.	8cc\J)	.	.	.	.	.	.
*	*	*	*	*2\right	*	*	*	*	*	*	*	*	*	*	*	*
.	.	8qqa/	.	8qqcc/	.	.	8qqA/	.	.	.	.	.	.	.	.	.
8r	.	2b/	.	2dd\	.	.	2B\	-ra	.	2dd\	-ra	-re	.	.	.	.
8G\L	.	.	.	.	.	.	.	.	.	.	.	.	.	.	.	.
8BB/	.	.	.	.	.	.	.	.	.	.	.	.	.	.	.	.
8GG/J	.	.	.	.	.	.	.	.	.	.	.	.	.	.	.	.
=52	=52	=52	=52	=52	=52	=52	=52	=52	=52	=52	=52	=52	=52	=52	=52	=52
4D\	.	8a\L	.	12cc\L	.	2.ryy	2.A\	O-	-re-	2.cc\	o-	mise-	2.ryy	2.ryy	2.ryy	.
.	.	.	.	12ff#\	.	.	.	.	.	.	.	.	.	.	.	.
.	.	8cc\J	.	.	.	.	.	.	.	.	.	.	.	.	.	.
.	.	.	.	12aa\J	.	.	.	.	.	.	.	.	.	.	.	.
8r	.	8a/L	.	8cc\L	.	.	.	.	.	.	.	.	.	.	.	.
8D\L	.	8a/J	.	8cc\J	.	.	.	.	.	.	.	.	.	.	.	.
8E\	.	4a/	.	4ccT\	.	.	.	.	.	.	.	.	.	.	.	.
8F#\J	.	.	.	.	.	.	.	.	.	.	.	.	.	.	.	.
=53	=53	=53	=53	=53	=53	=53	=53	=53	=53	=53	=53	=53	=53	=53	=53	=53
4G\	.	8g/L	.	(8b\L	.	2.ryy	(8G\L	.	-re	(8b\L	.	-re-	2.ryy	2.ryy	2.ryy	.
.	.	8a/J	.	8cc\J)	.	.	8A\J)	.	.	8cc\J)	.	.	.	.	.	.
.	.	8qqa/	.	8qqcc/	.	.	8qqA/	.	.	8qqcc/	.	.	.	.	.	.
8r	.	2b/	.	2dd\	.	.	2B\	-ra	.	2dd\	-ra	-re	.	.	.	.
8G\L	.	.	.	.	.	.	.	.	.	.	.	.	.	.	.	.
8BB/	.	.	.	.	.	.	.	.	.	.	.	.	.	.	.	.
8GG/J	.	.	.	.	.	.	.	.	.	.	.	.	.	.	.	.
!	!	!	!	!	!	!	!	!	!	!LO:LB:g=original	!	!	!	!	!	!
=54	=54	=54	=54	=54	=54	=54	=54	=54	=54	=54	=54	=54	=54	=54	=54	=54
8GG/L	.	8b/L	.	(16gg\LL	.	2.ryy	8B\L	pro	no-	16gg\LL	pro	no-	2.ryy	2.ryy	2.ryy	.
.	.	.	.	16ee\)	.	.	.	.	.	(16ee\	.	.	.	.	.	.
8C/J	.	8a/J	.	(16dd\	.	.	8A\J	.	.	16dd\	.	.	.	.	.	.
.	.	.	.	16cc\JJ)	.	.	.	.	.	16cc\JJ)	.	.	.	.	.	.
4D/	.	4g/	.	4b/	.	.	4G/	no-	.	4b\	no-	.	.	.	.	.
4DD/	.	4f#t/	.	4aT/	.	.	4F#/	.	.	4aT\	.	.	.	.	.	.
!	!	!LO:LB:g=original	!	!	!	!	!	!	!	!	!	!	!	!	!	!
=55	=55	=55	=55	=55	=55	=55	=55	=55	=55	=55	=55	=55	=55	=55	=55	=55
!LO:TX:t=P:problem=mixed beam	!	!	!	!	!	!	!	!	!	!	!	!	!	!	!	!
!	!LO:DY:a:t=for	!	!	!	!	!	!	!	!	!	!	!	!	!	!	!
8GG/L	f	4g/	.	4g/	.	2.ryy	4G/	-bis	-bis	4g\	-biſ	-bis	2.ryy	2.ryy	2.ryy	.
8G\	.	.	.	.	.	.	.	.	.	.	.	.	.	.	.	.
8B\	.	4r	.	4r	.	.	4r	.	.	4r	.	.	.	.	.	.
8G\	.	.	.	.	.	.	.	.	.	.	.	.	.	.	.	.
8BB/	.	4r	.	4r	.	.	4r	.	.	4r	.	.	.	.	.	.
8GG/J	.	.	.	.	.	.	.	.	.	.	.	.	.	.	.	.
!	!	!	!	!LO:LB:g=original	!	!	!LO:LB:g=original	!	!	!	!	!	!	!	!	!
=56	=56	=56	=56	=56	=56	=56	=56	=56	=56	=56	=56	=56	=56	=56	=56	=56
!	!	!	!LO:DY:a:t=for	!	!LO:DY:a:t=for&colon;	!	!	!	!	!	!	!	!	!	!	!
8D\L	.	16a\LL	f	(16ff#\LL	f	2.ryy	2.r	.	.	2.r	.	.	2.ryy	2.ryy	2.ryy	.
.	.	16b\JJ	.	16gg\JJ)	.	.	.	.	.	.	.	.	.	.	.	.
8D\	.	4a\	.	4ff#\	.	.	.	.	.	.	.	.	.	.	.	.
8D\	.	.	.	.	.	.	.	.	.	.	.	.	.	.	.	.
8D\	.	8b\	.	8gg\	.	.	.	.	.	.	.	.	.	.	.	.
.	.	8qqb/	.	8qqgg/	.	.	.	.	.	.	.	.	.	.	.	.
8D\	.	4cc\	.	4aa\	.	.	.	.	.	.	.	.	.	.	.	.
8D\J	.	.	.	.	.	.	.	.	.	.	.	.	.	.	.	.
!LO:LB:g=original	!	!	!	!	!	!	!	!	!	!	!	!	!	!	!	!
=57	=57	=57	=57	=57	=57	=57	=57	=57	=57	=57	=57	=57	=57	=57	=57	=57
8D\L	.	(16f#/LL	.	(16a/LL	.	2.ryy	2.r	.	.	2.r	.	.	2.ryy	2.ryy	2.ryy	.
.	.	16g/JJ)	.	16b/JJ)	.	.	.	.	.	.	.	.	.	.	.	.
8D\	.	4f#/	.	4a/	.	.	.	.	.	.	.	.	.	.	.	.
8D\	.	.	.	.	.	.	.	.	.	.	.	.	.	.	.	.
8D\	.	8g/	.	8b/	.	.	.	.	.	.	.	.	.	.	.	.
.	.	8qqg/	.	8qqb/	.	.	.	.	.	.	.	.	.	.	.	.
8D\	.	4a/	.	4cc/	.	.	.	.	.	.	.	.	.	.	.	.
8D\J	.	.	.	.	.	.	.	.	.	.	.	.	.	.	.	.
=58	=58	=58	=58	=58	=58	=58	=58	=58	=58	=58	=58	=58	=58	=58	=58	=58
8GG/L	.	8g/L	.	(16b\LL	.	2.ryy	2.r	.	.	2.r	.	.	2.ryy	2.ryy	2.ryy	.
.	.	.	.	16gg\)	.	.	.	.	.	.	.	.	.	.	.	.
8C/J	.	8a/J	.	(16ee\	.	.	.	.	.	.	.	.	.	.	.	.
.	.	.	.	16cc\JJ)	.	.	.	.	.	.	.	.	.	.	.	.
4D/	.	4g/	.	4b/	.	.	.	.	.	.	.	.	.	.	.	.
4DD/	.	4f#t/	.	4aT/	.	.	.	.	.	.	.	.	.	.	.	.
=59	=59	=59	=59	=59	=59	=59	=59	=59	=59	=59	=59	=59	=59	=59	=59	=59
!	!LO:DY:a:t=pia&colon;	!	!LO:DY:a:t=pia&colon;	!	!LO:DY:a:t=pia.	!	!	!	!	!	!	!	!	!	!	!
8D/L	p	(16a/LL	p	(16ff#\LL	p	2.ryy	2.r	.	.	2.r	.	.	2.ryy	2.ryy	2.ryy	.
.	.	16b/JJ)	.	16gg\JJ)	.	.	.	.	.	.	.	.	.	.	.	.
8D/	.	4a/	.	4ff#\	.	.	.	.	.	.	.	.	.	.	.	.
8D/	.	.	.	.	.	.	.	.	.	.	.	.	.	.	.	.
8D/	.	8b/	.	8gg\	.	.	.	.	.	.	.	.	.	.	.	.
.	.	8qqb/	.	8qqgg/	.	.	.	.	.	.	.	.	.	.	.	.
8D/	.	4cc\	.	4aa\	.	.	.	.	.	.	.	.	.	.	.	.
8D/J	.	.	.	.	.	.	.	.	.	.	.	.	.	.	.	.
=60	=60	=60	=60	=60	=60	=60	=60	=60	=60	=60	=60	=60	=60	=60	=60	=60
8D/L	.	(16f#/LL	.	16a\LL	.	2.ryy	2.r	.	.	2.r	.	.	2.ryy	2.ryy	2.ryy	.
.	.	16g/JJ)	.	16b\JJ	.	.	.	.	.	.	.	.	.	.	.	.
8D/	.	4f#/	.	4a\	.	.	.	.	.	.	.	.	.	.	.	.
8D/	.	.	.	.	.	.	.	.	.	.	.	.	.	.	.	.
8D/	.	8g/	.	8b\	.	.	.	.	.	.	.	.	.	.	.	.
.	.	8qqg/	.	8qqb/	.	.	.	.	.	.	.	.	.	.	.	.
8D/	.	4a/	.	4cc\	.	.	.	.	.	.	.	.	.	.	.	.
8D/J	.	.	.	.	.	.	.	.	.	.	.	.	.	.	.	.
=61	=61	=61	=61	=61	=61	=61	=61	=61	=61	=61	=61	=61	=61	=61	=61	=61
8GG/L	.	8g/L	.	(16b\LL	.	2.ryy	2.r	.	.	2.r	.	.	2.ryy	2.ryy	2.ryy	.
.	.	.	.	16gg\)	.	.	.	.	.	.	.	.	.	.	.	.
8C/J	.	8a/J	.	(16ee\	.	.	.	.	.	.	.	.	.	.	.	.
.	.	.	.	16cc\JJ)	.	.	.	.	.	.	.	.	.	.	.	.
4D/	.	4g/	.	4b/	.	.	.	.	.	.	.	.	.	.	.	.
4DD/	.	4f#t/	.	4aT/	.	.	.	.	.	.	.	.	.	.	.	.
=62	=62	=62	=62	=62	=62	=62	=62	=62	=62	=62	=62	=62	=62	=62	=62	=62
!	!	!	!LO:DY:a:t=for	!	!LO:DY:a:t=for.	!	!	!	!	!	!	!	!	!	!	!
!	!LO:DY:a:t=for&colon;	!	!	!	!	!	!	!	!	!	!	!	!	!	!	!
4GG/	f	16g/LL	f	16g/LL	f	2.ryy	2.r	.	.	2.r	.	.	2.ryy	2.ryy	2.ryy	.
.	.	16g/	.	16g/	.	.	.	.	.	.	.	.	.	.	.	.
.	.	16d/	.	16d/	.	.	.	.	.	.	.	.	.	.	.	.
.	.	16B/JJ	.	16B/JJ	.	.	.	.	.	.	.	.	.	.	.	.
4r	.	16G/LL	.	16G/LL	.	.	.	.	.	.	.	.	.	.	.	.
.	.	16g/	.	16g/	.	.	.	.	.	.	.	.	.	.	.	.
.	.	16d/	.	16d/	.	.	.	.	.	.	.	.	.	.	.	.
.	.	16B/JJ	.	16B/JJ	.	.	.	.	.	.	.	.	.	.	.	.
4r	.	4G/	.	4G/	.	.	.	.	.	.	.	.	.	.	.	.
=63	=63	=63	=63	=63	=63	=63	=63	=63	=63	=63	=63	=63	=63	=63	=63	=63
*	*	*2\right	*	*	*	*	*	*	*	*	*	*	*	*	*	*
!	!LO:DY:a:t=pia&colon;	!	!	!	!LO:DY:a:t=pia.	!	!	!	!	!	!	!	!	!	!	!
8G\L	p	2b\	.	2dd\	p	2.ryy	2B\	Do-	Je-	2dd\	do-	Je-	2.ryy	2.ryy	2.ryy	.
8G\	.	.	.	.	.	.	.	.	.	.	.	.	.	.	.	.
8G\	.	.	.	.	.	.	.	.	.	.	.	.	.	.	.	.
8G\	.	.	.	.	.	.	.	.	.	.	.	.	.	.	.	.
8G\	.	(8cc\L	.	(8ee\L	.	.	8c\L	-mus	-su	8ee\L	-mus	-su	.	.	.	.
8G\J	.	8a\J)	.	8ff#\J)	.	.	8A\J	.	.	8ff#\J	.	mi-	.	.	.	.
!	!	!LO:LB:g=original	!	!	!	!	!	!	!	!	!	!	!	!	!	!
=64	=64	=64	=64	=64	=64	=64	=64	=64	=64	=64	=64	=64	=64	=64	=64	=64
8G\L	.	8b\L	.	8gg\L	.	2.ryy	8B\	au-	mi-	8gg\	au-	-tiſ-	2.ryy	2.ryy	2.ryy	.
8G\	.	(16dd\L	.	(16ff#\L	.	.	16d\LL	-re-	-tiſ-	16ff#\LL	-re-	-si-	.	.	.	.
.	.	16cc\JJ)	.	16ee\JJ)	.	.	16c\JJ	.	.	16ee\JJ	.	.	.	.	.	.
.	.	8qqcc/	.	8qqee/	.	.	.	.	.	.	.	.	.	.	.	.
8G\	.	2b\	.	2dd\	.	.	2B\	-a	-si-	2dd\	-a	-me	.	.	.	.
8G\	.	.	.	.	.	.	.	.	.	.	.	.	.	.	.	.
8G\	.	.	.	.	.	.	.	.	.	.	.	.	.	.	.	.
8G\J	.	.	.	.	.	.	.	.	.	.	.	.	.	.	.	.
!	!	!	!	!LO:LB:g=original	!	!	!	!	!	!	!	!	!	!	!	!
=65	=65	=65	=65	=65	=65	=65	=65	=65	=65	=65	=65	=65	=65	=65	=65	=65
!	!	!	!	!	!	!	!	!	!	!	!	!	!	!	!LO:TX:b:i:t=Vertatur citiſsime.	!
8c\L	.	(4cc\	.	(4ee\	.	2.ryy	(4c\	foe-	-me	8ee\L	foe-	Je-	2.ryy	2.ryy	2.ryy	.
8c\	.	.	.	.	.	.	.	.	.	(16ff#\L	.	-su	.	.	.	.
.	.	.	.	.	.	.	.	.	.	16gg\JJ)	.	.	.	.	.	.
8d\	.	4b\)	.	4dd\)	.	.	4B\	.	pa-	4dd\	.	pa-	.	.	.	.
8d\	.	.	.	.	.	.	.	.	.	.	.	.	.	.	.	.
8D\	.	4a/	.	4cc\	.	.	8A\)	-de-	-tien-	8cc\	-de-	-tien-	.	.	.	.
8D\J	.	.	.	.	.	.	8A\	-ris	-tiſ-	8cc\	-ris	-tyſ-	.	.	.	.
=66	=66	=66	=66	=66	=66	=66	=66	=66	=66	=66	=66	=66	=66	=66	=66	=66
8D\L	.	4aT/	.	4ccT\	.	2.ryy	4A\	ar-	-si-	4ccT\	lar-	-si-	2.ryy	2.ryy	2.ryy	.
8D\J	.	.	.	.	.	.	.	.	.	.	.	.	.	.	.	.
!LO:TX:t=P:problem=mixed beam	!	!	!	!	!	!	!	!	!	!	!	!	!	!	!	!
8GG/L	.	4g/	.	4b\	.	.	4G\	-ca	-me	4b\	-ca	-me	.	.	.	.
8G\	.	.	.	.	.	.	.	.	.	.	.	.	.	.	.	.
8D\	.	4r	.	4r	.	.	4r	.	.	4r	.	.	.	.	.	.
8BB\J	.	.	.	.	.	.	.	.	.	.	.	.	.	.	.	.
=67	=67	=67	=67	=67	=67	=67	=67	=67	=67	=67	=67	=67	=67	=67	=67	=67
8GG/L	.	8b\L	.	8dd\L	.	2.ryy	2.r	.	.	4.ffn\	fa-	mi-	2.ryy	2.ryy	2.ryy	.
8GG/	.	8b\J	.	8dd\	.	.	.	.	.	.	.	.	.	.	.	.
!	!	!	!	!	!	!	!	!	!	!	!	!	!	!	!	!
8GG/	.	(8dd\L	.	(8ffn\	.	.	.	.	.	.	.	.	.	.	.	.
8GG/	.	8fn/)	.	8dd\)	.	.	.	.	.	8dd\	-nu-	.	.	.	.	.
8GG/	.	(8e/	.	(8cc\	.	.	.	.	.	(8cc\L	-a	-se-	.	.	.	.
8GG/J	.	8d/J)	.	8b\J)	.	.	.	.	.	8b\J)	.	.	.	.	.	.
!LO:LB:g=original	!	!	!	!	!	!	!	!	!	!	!	!	!	!	!	!
=68	=68	=68	=68	=68	=68	=68	=68	=68	=68	=68	=68	=68	=68	=68	=68	=68
8C/L	.	8e/L	.	(8cc\L	.	2.ryy	2.r	.	.	(8cc\L	Cae-	-re-	2.ryy	2.ryy	2.ryy	.
8C/	.	8d/J	.	8b\J)	.	.	.	.	.	8b\J)	.	.	.	.	.	.
8C/	.	4e/	.	4cc\	.	.	.	.	.	4cc\	-li	.	.	.	.	.
8C/	.	.	.	.	.	.	.	.	.	.	.	.	.	.	.	.
8C/	.	(8cc\L	.	(8ee\L	.	.	.	.	.	(8ee\L	Stel-	-re	.	.	.	.
8C/J	.	8ee\J)	.	8gg\J)	.	.	.	.	.	8gg\J)	.	.	.	.	.	.
!	!	!	!	!	!	!	!	!	!	!LO:LB:g=original	!	!	!	!	!	!
=69	=69	=69	=69	=69	=69	=69	=69	=69	=69	=69	=69	=69	=69	=69	=69	=69
.	.	8qqee/	.	8qqgg/	.	.	.	.	.	8qqgg/	.	.	.	.	.	.
8GG/L	.	4.dd\	.	4.ffn\	.	2.ryy	2.r	.	.	4.ffn\	.	no-	2.ryy	2.ryy	2.ryy	.
8GG/	.	.	.	.	.	.	.	.	.	.	.	.	.	.	.	.
8GG/	.	.	.	.	.	.	.	.	.	.	.	.	.	.	.	.
8GG/	.	(8fn/L	.	(8dd\L	.	.	.	.	.	8dd\	-la	.	.	.	.	.
8GG/	.	8e/	.	8cc\	.	.	.	.	.	8cc\	ma-	.	.	.	.	.
8GG/J	.	8d/J)	.	8b\J)	.	.	.	.	.	8b\	-tu-	.	.	.	.	.
=70	=70	=70	=70	=70	=70	=70	=70	=70	=70	=70	=70	=70	=70	=70	=70	=70
4C/	.	(8e/L	.	(8cc\L	.	2.ryy	2.r	.	.	(8cc\L	-ti-	.	2.ryy	2.ryy	2.ryy	.
.	.	8d/J)	.	8b\J)	.	.	.	.	.	8b\J)	.	.	.	.	.	.
.	.	8qqd/	.	8qqb/	.	.	.	.	.	8qqb/	.	.	.	.	.	.
8c\L	.	2e/	.	2cc\	.	.	.	.	.	2cc\	-na	-bis	.	.	.	.
8G\	.	.	.	.	.	.	.	.	.	.	.	.	.	.	.	.
8E\	.	.	.	.	.	.	.	.	.	.	.	.	.	.	.	.
8C\J	.	.	.	.	.	.	.	.	.	.	.	.	.	.	.	.
=71	=71	=71	=71	=71	=71	=71	=71	=71	=71	=71	=71	=71	=71	=71	=71	=71
8AA/L	.	8cc#X\L	.	8ee\L	.	2.ryy	4.g\	Ja-	mi-	2.r	.	.	2.ryy	2.ryy	2.ryy	.
8AA/	.	8cc#\J	.	8ee\	.	.	.	.	.	.	.	.	.	.	.	.
!	!	!	!	!	!	!	!	!	!	!	!	!	!	!	!	!
8AA/	.	(8ee\L	.	(8gg\	.	.	.	.	.	.	.	.	.	.	.	.
8AA/	.	8g/)	.	8ee\)	.	.	8e\	-nu-	.	.	.	.	.	.	.	.
8AA/	.	(8f#X/	.	(8dd\	.	.	(8d\L	-a	-se-	.	.	.	.	.	.	.
8AA/J	.	8e/J)	.	8cc#X\J)	.	.	8c#X\J)	.	.	.	.	.	.	.	.	.
=72	=72	=72	=72	=72	=72	=72	=72	=72	=72	=72	=72	=72	=72	=72	=72	=72
8D\L	.	(8f#/L	.	(8dd\L	.	2.ryy	(8d\L	Cae-	-re-	2.r	.	.	2.ryy	2.ryy	2.ryy	.
8D\	.	8e/J)	.	8cc#X\J)	.	.	8c\J)	.	.	.	.	.	.	.	.	.
8D\	.	4f#/	.	4dd\	.	.	4d\	-li	-re	.	.	.	.	.	.	.
8D\	.	.	.	.	.	.	.	.	.	.	.	.	.	.	.	.
8D\	.	8dd\L	.	(8ff#\L	.	.	8f#X\L	Stel-	.	.	.	.	.	.	.	.
8D\J	.	8ff#\J	.	8aa\J)	.	.	8a\J	.	.	.	.	.	.	.	.	.
!	!	!	!	!	!	!	!LO:LB:g=original	!	!	!	!	!	!	!	!	!
=73	=73	=73	=73	=73	=73	=73	=73	=73	=73	=73	=73	=73	=73	=73	=73	=73
.	.	8qqff#/	.	8qqaa/	.	.	8qqa/	.	.	.	.	.	.	.	.	.
8AA/L	.	4.ee\	.	4.gg\	.	2.ryy	4.g\	.	no-	2.r	.	.	2.ryy	2.ryy	2.ryy	.
8AA/	.	.	.	.	.	.	.	.	.	.	.	.	.	.	.	.
8AA/	.	.	.	.	.	.	.	.	.	.	.	.	.	.	.	.
8AA/	.	(8g/L	.	(8ee\L	.	.	8e\	-la	.	.	.	.	.	.	.	.
8AA/	.	8f#/	.	8dd\	.	.	8d\	ma-	.	.	.	.	.	.	.	.
8AA/J	.	8e/J)	.	8cc#X\J)	.	.	8c#X\	-tu-	.	.	.	.	.	.	.	.
=74	=74	=74	=74	=74	=74	=74	=74	=74	=74	=74	=74	=74	=74	=74	=74	=74
4D\	.	(8f#/L	.	(8dd\L	.	2.ryy	(8d\L	-ti-	.	2.r	.	.	2.ryy	2.ryy	2.ryy	.
.	.	8e/J)	.	8cc#X\J)	.	.	8c#X\J)	.	.	.	.	.	.	.	.	.
.	.	8qqe/	.	8qqcc#/	.	.	8qqc#/	.	.	.	.	.	.	.	.	.
8D\L	.	2f#/	.	2dd\	.	.	2d\	-na	-bis	.	.	.	.	.	.	.
8d\	.	.	.	.	.	.	.	.	.	.	.	.	.	.	.	.
8A\	.	.	.	.	.	.	.	.	.	.	.	.	.	.	.	.
8F#\J	.	.	.	.	.	.	.	.	.	.	.	.	.	.	.	.
!	!	!LO:LB:g=original	!	!LO:LB:g=original	!	!	!	!	!	!	!	!	!	!	!	!
=75	=75	=75	=75	=75	=75	=75	=75	=75	=75	=75	=75	=75	=75	=75	=75	=75
8D\L	.	8dd\L	.	8ff#X\L	.	2.ryy	2d\	O-	mi-	2ff#X\	o-	mi-	2.ryy	2.ryy	2.ryy	.
8d\	.	8dd\	.	8ff#\	.	.	.	.	.	.	.	.	.	.	.	.
8d\	.	8dd\	.	8ff#\	.	.	.	.	.	.	.	.	.	.	.	.
8d\	.	8dd\	.	8ff#\	.	.	.	.	.	.	.	.	.	.	.	.
8d\	.	8dd\	.	8ff#\	.	.	4d\	-ra	-se-	4ff#\	-ra	-se-	.	.	.	.
8d\J	.	8dd\J	.	8ff#\J	.	.	.	.	.	.	.	.	.	.	.	.
=76	=76	=76	=76	=76	=76	=76	=76	=76	=76	=76	=76	=76	=76	=76	=76	=76
8cn\L	.	8dd#X\L	.	8ff#\L	.	2.ryy	2d#X\	O-	-re-	2ff#\	o-	-re-	2.ryy	2.ryy	2.ryy	.
8c\	.	8dd#\	.	8ff#\	.	.	.	.	.	.	.	.	.	.	.	.
8c\	.	8dd#\	.	8ff#\	.	.	.	.	.	.	.	.	.	.	.	.
8c\	.	8dd#\	.	8ff#\	.	.	.	.	.	.	.	.	.	.	.	.
8c\	.	8dd#\	.	8ff#\	.	.	4d#\	-ra	-re	4ff#\	-ra	-re	.	.	.	.
8c\J	.	8dd#\J	.	8ff#\J	.	.	.	.	.	.	.	.	.	.	.	.
=77	=77	=77	=77	=77	=77	=77	=77	=77	=77	=77	=77	=77	=77	=77	=77	=77
8B\L	.	8dd#X\L	.	8ff#\L	.	2.ryy	4d\	O-	.	4ff#\	o-	no-	2.ryy	2.ryy	2.ryy	.
8B\	.	8dd#\	.	8ff#\	.	.	.	.	.	.	.	.	.	.	.	.
8B\	.	8dd#\	.	8ff#\	.	.	4d\	-ra	no-	4ff#\	-ra	.	.	.	.	.
8B\	.	8dd#\	.	8ff#\	.	.	.	.	.	.	.	.	.	.	.	.
8B\	.	8dd#\	.	8ff#\	.	.	4d\	pro	.	4ff#\	pro	.	.	.	.	.
8B\J	.	8dd#\J	.	8ff#\J	.	.	.	.	.	.	.	.	.	.	.	.
=78	=78	=78	=78	=78	=78	=78	=78	=78	=78	=78	=78	=78	=78	=78	=78	=78
4E\	.	4ee\	.	4ggT\	.	2.ryy	4e\	no-	.	4gg\	no-	.	2.ryy	2.ryy	2.ryy	.
4B\	.	4dd#X\	.	4ff#\	.	.	4d#X\	-bis	-bis	4ff#\	-bis	-bis	.	.	.	.
!LO:TX:b:i:t=Vertatur citiſsime.	!	!	!	!	!	!	!	!	!	!	!	!	!	!	!	!
4BB/	.	4r	.	4r	.	.	4r	.	.	4r	.	.	.	.	.	.
!LO:LB:g=original	!	!	!	!	!	!	!	!	!	!	!	!	!	!	!	!
=79	=79	=79	=79	=79	=79	=79	=79	=79	=79	=79	=79	=79	=79	=79	=79	=79
4E\	.	4g/	.	12ee\L	.	2.ryy	2.r	.	.	2ee\	do-	Je-	2.ryy	2.ryy	2.ryy	.
.	.	.	.	12gg\	.	.	.	.	.	.	.	.	.	.	.	.
.	.	.	.	12bb\J	.	.	.	.	.	.	.	.	.	.	.	.
8r	.	8r	.	8ee\L	.	.	.	.	.	.	.	.	.	.	.	.
8E\L	.	8g/L	.	8ee\J	.	.	.	.	.	.	.	.	.	.	.	.
8G\	.	8b/	.	4ee\	.	.	.	.	.	4ee\	-mus	-su	.	.	.	.
8A\J	.	8cc/J	.	.	.	.	.	.	.	.	.	.	.	.	.	.
=80	=80	=80	=80	=80	=80	=80	=80	=80	=80	=80	=80	=80	=80	=80	=80	=80
4B\	.	4f#/	.	12b\L	.	2.ryy	2.r	.	.	8ff#\	au-	Je-	2.ryy	2.ryy	2.ryy	.
.	.	.	.	12dd#X\	.	.	.	.	.	.	.	.	.	.	.	.
.	.	.	.	.	.	.	.	.	.	8dd#X\	-re-	.	.	.	.	.
.	.	.	.	12ff#\J	.	.	.	.	.	.	.	.	.	.	.	.
8r	.	8r	.	8b\L	.	.	.	.	.	2bt\	-a	-su	.	.	.	.
8BB/L	.	8d#X/L	.	8b\J	.	.	.	.	.	.	.	.	.	.	.	.
8C#X/	.	8e/	.	4b\	.	.	.	.	.	.	.	.	.	.	.	.
8D#X/J	.	8f#/J	.	.	.	.	.	.	.	.	.	.	.	.	.	.
=81	=81	=81	=81	=81	=81	=81	=81	=81	=81	=81	=81	=81	=81	=81	=81	=81
4E\	.	4g/	.	12ee\L	.	2.ryy	2.r	.	.	4ee\	foe-	o-	2.ryy	2.ryy	2.ryy	.
.	.	.	.	12gg\	.	.	.	.	.	.	.	.	.	.	.	.
.	.	.	.	12bb\J	.	.	.	.	.	.	.	.	.	.	.	.
8r	.	8r	.	8ee\L	.	.	.	.	.	4.gg\	.	-be-	.	.	.	.
8E\L	.	8g/L	.	8ee\J	.	.	.	.	.	.	.	.	.	.	.	.
8G\	.	8b/	.	8gg\L	.	.	.	.	.	.	.	.	.	.	.	.
8A\J	.	8cc/J	.	(16ff#\L	.	.	.	.	.	16ff#\	-de-	-di-	.	.	.	.
.	.	.	.	16ee\JJ)	.	.	.	.	.	16ee\	-ris	-en-	.	.	.	.
!	!	!	!	!	!	!	!	!	!	!LO:LB:g=original	!	!	!	!	!	!
=82	=82	=82	=82	=82	=82	=82	=82	=82	=82	=82	=82	=82	=82	=82	=82	=82
*	*	*tuplet	*	*	*	*	*	*	*	*	*	*	*	*	*	*
!	!	!LO:TX:t=P:problem= klamra łukowa	!	!	!	!	!	!	!	!	!	!	!	!	!	!
4B\	.	12f#/L	.	(12dd#X\L	.	2.ryy	2.r	.	.	12dd#X\L	ar-	-tiſ-	2.ryy	2.ryy	2.ryy	.
.	.	12e/	.	12cc\	.	.	.	.	.	12cc\	.	-si-	.	.	.	.
.	.	12d#X/J	.	12b\J)	.	.	.	.	.	12b\J	.	.	.	.	.	.
8B\L	.	4d#/	.	4b\	.	.	.	.	.	4b\	-ca	-me	.	.	.	.
8A\	.	.	.	.	.	.	.	.	.	.	.	.	.	.	.	.
8G\	.	4r	.	4r	.	.	.	.	.	4r	.	.	.	.	.	.
8F#\J	.	.	.	.	.	.	.	.	.	.	.	.	.	.	.	.
=83	=83	=83	=83	=83	=83	=83	=83	=83	=83	=83	=83	=83	=83	=83	=83	=83
4E\	.	4g/	.	12ee\L	.	2.ryy	2e\	Do-	Je-	2.r	.	.	2.ryy	2.ryy	2.ryy	.
.	.	.	.	12gg\	.	.	.	.	.	.	.	.	.	.	.	.
.	.	.	.	12bb\J	.	.	.	.	.	.	.	.	.	.	.	.
8r	.	8r	.	8ee\L	.	.	.	.	.	.	.	.	.	.	.	.
8E\L	.	8g/L	.	8ee\J	.	.	.	.	.	.	.	.	.	.	.	.
8G\	.	8b/	.	4ee\	.	.	4e\	-mus	-su	.	.	.	.	.	.	.
8A\J	.	8cc/J	.	.	.	.	.	.	.	.	.	.	.	.	.	.
!	!	!	!	!	!	!	!LO:LB:g=originalLO:LB:g=original	!	!	!	!	!	!	!	!	!
=84	=84	=84	=84	=84	=84	=84	=84	=84	=84	=84	=84	=84	=84	=84	=84	=84
4B\	.	4f#/	.	12b\L	.	2.ryy	8f#\	au-	Caſ-	2.r	.	.	2.ryy	2.ryy	2.ryy	.
.	.	.	.	12dd#X\	.	.	.	.	.	.	.	.	.	.	.	.
.	.	.	.	.	.	.	8d#X\	-re-	-tiſ-	.	.	.	.	.	.	.
.	.	.	.	12ff#\J	.	.	.	.	.	.	.	.	.	.	.	.
8r	.	8r	.	8b\L	.	.	2Bt\	-a	-si-	.	.	.	.	.	.	.
8BB/L	.	8d#X/L	.	8b\J	.	.	.	.	.	.	.	.	.	.	.	.
8C#X/	.	8e/	.	4b\	.	.	.	.	.	.	.	.	.	.	.	.
8D#X/J	.	8f#/J	.	.	.	.	.	.	.	.	.	.	.	.	.	.
!	!	!	!	!LO:LB:g=original	!	!	!	!	!	!	!	!	!	!	!	!
=85	=85	=85	=85	=85	=85	=85	=85	=85	=85	=85	=85	=85	=85	=85	=85	=85
4E\	.	4g/	.	12ee\L	.	2.ryy	4e\	fe-	-me	2.r	.	.	2.ryy	2.ryy	2.ryy	.
.	.	.	.	12gg\	.	.	.	.	.	.	.	.	.	.	.	.
.	.	.	.	12bb\J	.	.	.	.	.	.	.	.	.	.	.	.
8r	.	8r	.	8ee\L	.	.	4.g\	.	mi-	.	.	.	.	.	.	.
8E\L	.	8g/L	.	8ee\J	.	.	.	.	.	.	.	.	.	.	.	.
8G\	.	8b/	.	8gg\L	.	.	.	.	.	.	.	.	.	.	.	.
8A\J	.	8cc/J	.	(16ff#\L	.	.	16f#\	-de-	.	.	.	.	.	.	.	.
.	.	.	.	16ee\JJ)	.	.	16e\	-ris	-se-	.	.	.	.	.	.	.
!	!	!LO:LB:g=original	!	!	!	!	!	!	!	!	!	!	!	!	!	!
=86	=86	=86	=86	=86	=86	=86	=86	=86	=86	=86	=86	=86	=86	=86	=86	=86
*	*	*tuplet	*	*	*	*	*	*	*	*	*	*	*	*	*	*
4B\	.	12f#/L	.	12dd#X\L	.	2.ryy	12d#X\L	ar-	-re-	2.r	.	.	2.ryy	2.ryy	2.ryy	.
.	.	12e/	.	12ccn\	.	.	12c\	.	-re	.	.	.	.	.	.	.
.	.	12d#X/J	.	12b\J	.	.	12B\J	.	no-	.	.	.	.	.	.	.
8B\L	.	4d#/	.	4b\	.	.	4B\	-ca	-bis	.	.	.	.	.	.	.
8A\	.	.	.	.	.	.	.	.	.	.	.	.	.	.	.	.
8G\	.	4r	.	4r	.	.	4r	.	.	.	.	.	.	.	.	.
8F#\J	.	.	.	.	.	.	.	.	.	.	.	.	.	.	.	.
=87	=87	=87	=87	=87	=87	=87	=87	=87	=87	=87	=87	=87	=87	=87	=87	=87
4E\	.	4g#X/	.	8.ee\L	.	2.ryy	2.r	.	.	2ee\	fa-	miſ-	2.ryy	2.ryy	2.ryy	.
.	.	.	.	16ee\Jk	.	.	.	.	.	.	.	.	.	.	.	.
8r	.	8r	.	4.ee\	.	.	.	.	.	.	.	.	.	.	.	.
8E\L	.	8g#/L	.	.	.	.	.	.	.	.	.	.	.	.	.	.
8F#\	.	8a/	.	.	.	.	.	.	.	8ee\	-nu-	.	.	.	.	.
8G#X\J	.	8b/J	.	8ddn\	.	.	.	.	.	8ddn\	-a	-se-	.	.	.	.
=88	=88	=88	=88	=88	=88	=88	=88	=88	=88	=88	=88	=88	=88	=88	=88	=88
*	*	*tuplet	*	*tuplet	*	*	*	*	*	*tuplet	*	*	*	*	*	*
!	!	!	!	!LO:TX:t=P:problem= klamra łukowa	!	!	!	!	!	!LO:TX:t=P:problem= klamra łukowa	!	!	!	!	!	!
4A\	.	8e/L	.	12cc\L	.	2.ryy	2.r	.	.	12ccn\L	Cae-	-re-	2.ryy	2.ryy	2.ryy	.
.	.	.	.	12b\	.	.	.	.	.	12b\	.	.	.	.	.	.
.	.	8dn/	.	.	.	.	.	.	.	.	.	.	.	.	.	.
.	.	.	.	12a\J	.	.	.	.	.	12a\J	.	.	.	.	.	.
8r	.	8c/J	.	4a/	.	.	.	.	.	4a\	-li	-re	.	.	.	.
8cn\L	.	4c/	.	.	.	.	.	.	.	.	.	.	.	.	.	.
8A\	.	.	.	4r	.	.	.	.	.	4r	.	.	.	.	.	.
!	!	!LO:N:vis=4	!	!	!	!	!	!	!	!	!	!	!	!	!	!
8Gn\J	.	8r	.	.	.	.	.	.	.	.	.	.	.	.	.	.
!LO:LB:g=original	!	!	!	!	!	!	!	!	!	!	!	!	!	!	!	!
=89	=89	=89	=89	=89	=89	=89	=89	=89	=89	=89	=89	=89	=89	=89	=89	=89
4F#\	.	4f#/	.	8.dd\L	.	2.ryy	4d\	Stel-	mi-	2.r	.	.	2.ryy	2.ryy	2.ryy	.
.	.	.	.	16dd\Jk	.	.	.	.	.	.	.	.	.	.	.	.
8r	.	8r	.	4.dd\	.	.	4d\	-la	.	.	.	.	.	.	.	.
8D\L	.	8f#/L	.	.	.	.	.	.	.	.	.	.	.	.	.	.
8E\	.	8gn/	.	.	.	.	8d\	ma-	-se-	.	.	.	.	.	.	.
8F#\J	.	8a/J	.	8cc\	.	.	8c\	-tu-	-re-	.	.	.	.	.	.	.
=90	=90	=90	=90	=90	=90	=90	=90	=90	=90	=90	=90	=90	=90	=90	=90	=90
!	!	!	!	!LO:TX:t=P:problem= klamra łukowa	!	!	!	!	!	!	!	!	!	!	!	!
4G\	.	12d/L	.	12b/L	.	2.ryy	12B\L	-ti-	-re	2.r	.	.	2.ryy	2.ryy	2.ryy	.
.	.	12c/	.	12a/	.	.	12A\	.	.	.	.	.	.	.	.	.
.	.	12B/J	.	12g/J	.	.	12G\J	.	no-	.	.	.	.	.	.	.
8r	.	4B/	.	4g/	.	.	4G/	-na	-bis	.	.	.	.	.	.	.
8A\L	.	.	.	.	.	.	.	.	.	.	.	.	.	.	.	.
8G\	.	4r	.	4r	.	.	4r	.	.	.	.	.	.	.	.	.
8F#\J	.	.	.	.	.	.	.	.	.	.	.	.	.	.	.	.
!	!	!	!	!	!	!	!LO:LB:g=original	!	!	!	!	!	!	!	!	!
=91	=91	=91	=91	=91	=91	=91	=91	=91	=91	=91	=91	=91	=91	=91	=91	=91
4E\	.	8.b/L	.	8.gg\L	.	2.ryy	4B\	O-	no-	4gg\	o-	mi-	2.ryy	2.ryy	2.ryy	.
.	.	16b/Jk	.	16gg\Jk	.	.	.	.	.	.	.	.	.	.	.	.
8r	.	4.b/	.	4.gg\	.	.	4B\	-ra	.	4gg\	-ra	-se-	.	.	.	.
8E\L	.	.	.	.	.	.	.	.	.	.	.	.	.	.	.	.
8A\	.	.	.	.	.	.	(8A\L	pro	.	(8ff#X\L	pro	-re-	.	.	.	.
8A#X\J	.	(16a/LL	.	(16ff#\LL	.	.	8G\J)	.	.	8ee\J)	.	-re	.	.	.	.
.	.	16g/JJ)	.	16ee\JJ)	.	.	.	.	.	.	.	.	.	.	.	.
=92	=92	=92	=92	=92	=92	=92	=92	=92	=92	=92	=92	=92	=92	=92	=92	=92
4B\	.	4gT/	.	4ee\	.	2.ryy	4G/	no-	.	4eeT\	no-	no-	2.ryy	2.ryy	2.ryy	.
4BB/	.	4f#/	.	4dd#X\	.	.	4F#/	-bis	-bis	4dd#X\	-bis	-bis	.	.	.	.
4BB/	.	4r	.	4r	.	.	4r	.	.	4r	.	.	.	.	.	.
=93	=93	=93	=93	=93	=93	=93	=93	=93	=93	=93	=93	=93	=93	=93	=93	=93
8BB/L	.	16f#/LL	.	(16dd\LL	.	2.ryy	16F#/LL	o-	mi-	(16dd\LL	o-	mi-	2.ryy	2.ryy	2.ryy	.
.	.	16g/JJ	.	16ee\JJ)	.	.	16G/JJ	.	.	16ee\JJ)	.	.	.	.	.	.
8BB/	.	4f#/	.	4dd\	.	.	4F#/	.	.	4dd\	.	.	.	.	.	.
8BB/	.	.	.	.	.	.	.	.	.	.	.	.	.	.	.	.
8BB/	.	8g/	.	8ee\	.	.	8G/	.	.	8ee\	.	.	.	.	.	.
.	.	8qqg/	.	8qqee/	.	.	8qqG/	.	.	8qqee/	.	.	.	.	.	.
8BB/	.	4a/	.	4ff#\	.	.	4A/	-ra	-se-	4ff#\	-ra	-se-	.	.	.	.
8BB/J	.	.	.	.	.	.	.	.	.	.	.	.	.	.	.	.
!	!	!	!	!LO:LB:g=original	!	!	!	!	!	!	!	!	!	!	!	!
=94	=94	=94	=94	=94	=94	=94	=94	=94	=94	=94	=94	=94	=94	=94	=94	=94
8BB/L	.	(16f#/LL	.	(16a/LL	.	2.ryy	16F#/LL	O-	-re-	(16a\LL	o-	-re-	2.ryy	2.ryy	2.ryy	.
.	.	16g/JJ)	.	16b/JJ)	.	.	16G/JJ	.	.	16b\JJ)	.	.	.	.	.	.
8BB/	.	4f#/	.	4a/	.	.	4F#/	.	-re	4a\	.	.	.	.	.	.
8BB/	.	.	.	.	.	.	.	.	.	.	.	.	.	.	.	.
8BB/	.	8g/	.	8b/	.	.	8G/	.	.	8b\	.	.	.	.	.	.
.	.	8qqg/	.	8qqb/	.	.	8qqG/	.	.	8qqb/	.	.	.	.	.	.
8BB/	.	4a/	.	4cc/	.	.	4A/	-ra	.	4cc\	-ra	-re	.	.	.	.
8BB/J	.	.	.	.	.	.	.	.	.	.	.	.	.	.	.	.
!	!	!	!	!	!	!	!	!	!	!LO:LB:g=original	!	!	!	!	!	!
=95	=95	=95	=95	=95	=95	=95	=95	=95	=95	=95	=95	=95	=95	=95	=95	=95
8E\L	.	8g/L	.	(16b\LL	.	2.ryy	8G/L	pro	no-	8b\L	pro	no-	2.ryy	2.ryy	2.ryy	.
.	.	.	.	16ee\)	.	.	.	.	.	.	.	.	.	.	.	.
8A\J	.	8f#/J	.	(16cc\	.	.	8F#/J	.	-bis	(16cc\L	.	.	.	.	.	.
.	.	.	.	16a\JJ)	.	.	.	.	.	16a\JJ)	.	.	.	.	.	.
4B\	.	4e/	.	4g/	.	.	4E/	no-	.	4g/	no-	.	.	.	.	.
4BB/	.	4d#X/	.	4f#t/	.	.	4D#X/	-bis	.	4f#/	-bis	-bis	.	.	.	.
!	!	!LO:LB:g=original	!	!	!	!	!	!	!	!	!	!	!	!	!	!
=96	=96	=96	=96	=96	=96	=96	=96	=96	=96	=96	=96	=96	=96	=96	=96	=96
8BB/L	.	(16f#/LL	.	(16dd#X\LL	.	2.ryy	16F#/LL	O-	.	(16dd#X\LL	o-	mi-	2.ryy	2.ryy	2.ryy	.
.	.	16g/JJ)	.	16ee\JJ)	.	.	16G/JJ	.	.	16ee\JJ)	.	.	.	.	.	.
8BB/	.	4f#/	.	4dd#\	.	.	4F#/	.	mi-	4dd#\	.	.	.	.	.	.
8BB/	.	.	.	.	.	.	.	.	.	.	.	.	.	.	.	.
8BB/	.	8g/	.	8ee\	.	.	8G/	.	-se-	8ee\	.	.	.	.	.	.
.	.	8qqg/	.	8qqee/	.	.	8qqG/	.	.	8qqee/	.	.	.	.	.	.
8BB/	.	4a/	.	4ff#\	.	.	4A/	-ra	.	4ff#\	-ra	-se-	.	.	.	.
8BB/J	.	.	.	.	.	.	.	.	.	.	.	.	.	.	.	.
!	!	!	!	!	!	!	!LO:LB:g=original	!	!	!	!	!	!	!	!	!
=97	=97	=97	=97	=97	=97	=97	=97	=97	=97	=97	=97	=97	=97	=97	=97	=97
8BB/L	.	(16f#/LL	.	(16a/LL	.	2.ryy	16F#/LL	O-	.	(16a\LL	o-	-re-	2.ryy	2.ryy	2.ryy	.
.	.	16g/JJ)	.	16b/JJ)	.	.	16G/JJ	.	-re-	16b\JJ)	.	.	.	.	.	.
8BB/	.	4f#/	.	4a/	.	.	4F#/	.	.	4a\	.	.	.	.	.	.
8BB/	.	.	.	.	.	.	.	.	.	.	.	.	.	.	.	.
8BB/	.	8g/	.	8b/	.	.	8G/	.	.	8b\	.	.	.	.	.	.
.	.	8qqg/	.	8qqb/	.	.	8qqG/	.	.	8qqb/	.	.	.	.	.	.
8BB/	.	4a/	.	4cc/	.	.	4A/	-ra	-re	4cc\	-ra	-re	.	.	.	.
8BB/J	.	.	.	.	.	.	.	.	.	.	.	.	.	.	.	.
=98	=98	=98	=98	=98	=98	=98	=98	=98	=98	=98	=98	=98	=98	=98	=98	=98
8E\L	.	8g/L	.	(16b\LL	.	2.ryy	8G/L	pro	.	8b\L	pro	no-	2.ryy	2.ryy	2.ryy	.
.	.	.	.	16ee\)	.	.	.	.	.	.	.	.	.	.	.	.
8A\J	.	8f#/J	.	(16cc\	.	.	8F#/J	.	.	(16dd\L	.	.	.	.	.	.
.	.	.	.	16a\JJ)	.	.	.	.	.	16a\JJ)	.	.	.	.	.	.
4B\	.	4e/	.	4g/	.	.	4E/	no-	no-	4g/	no-	.	.	.	.	.
!	!	!LO:TX:b:i:t=Dacapo ad Signum	!	!LO:TX:b:i:t=Da capo usq(e) ad Signum	!	!	!	!	!	!	!	!	!	!	!	!
4BB/	.	4d#X/	.	4f#t/	.	.	4D#X/	.	.	4f#/	.	.	.	.	.	.
=99	=99	=99	=99	=99	=99	=99	=99	=99	=99	=99	=99	=99	=99	=99	=99	=99
*	*	*Xtuplet	*	*Xtuplet	*	*	*	*	*	*	*	*	*	*	*	*
!	!LO:DY:a:t=for	!	!	!	!	!	!	!	!	!	!	!	!	!	!	!
4E\	f	4g/yy	.	12ee\Lyy	.	2.ryy	4E/	-bis	-bis	4e/	-bis	-bis	2.ryy	2.ryy	2.ryy	.
.	.	.	.	12gg\yy	.	.	.	.	.	.	.	.	.	.	.	.
.	.	.	.	12bb\Jyy	.	.	.	.	.	.	.	.	.	.	.	.
8r	.	8ryy	.	8ee\Lyy	.	.	4r	.	.	4r	.	.	.	.	.	.
8E\L	.	8g/Lyy	.	8ee\Jyy	.	.	.	.	.	.	.	.	.	.	.	.
8G\	.	8b/yy	.	4ee\yy	.	.	4r	.	.	4r	.	.	.	.	.	.
8A\J	.	8cc/Jyy	.	.	.	.	.	.	.	.	.	.	.	.	.	.
!LO:LB:g=original	!	!	!	!	!	!	!	!	!	!	!	!	!	!	!	!
=100	=100	=100	=100	=100	=100	=100	=100	=100	=100	=100	=100	=100	=100	=100	=100	=100
4B\	.	4f#/yy	.	12b\Lyy	.	2.ryy	2.r	.	.	2.r	.	.	2.ryy	2.ryy	2.ryy	.
.	.	.	.	12dd#X\yy	.	.	.	.	.	.	.	.	.	.	.	.
.	.	.	.	12ff#\Jyy	.	.	.	.	.	.	.	.	.	.	.	.
8r	.	8ryy	.	8b\Lyy	.	.	.	.	.	.	.	.	.	.	.	.
8BB/L	.	8d#X/Lyy	.	8b\Jyy	.	.	.	.	.	.	.	.	.	.	.	.
8C#X/	.	8e/yy	.	4b\yy	.	.	.	.	.	.	.	.	.	.	.	.
8D#X/J	.	8f#/Jyy	.	.	.	.	.	.	.	.	.	.	.	.	.	.
=101	=101	=101	=101	=101	=101	=101	=101	=101	=101	=101	=101	=101	=101	=101	=101	=101
4E\	.	4g/yy	.	12ee\Lyy	.	2.ryy	2.r	.	.	2.r	.	.	2.ryy	2.ryy	2.ryy	.
.	.	.	.	12gg\yy	.	.	.	.	.	.	.	.	.	.	.	.
.	.	.	.	12bb\Jyy	.	.	.	.	.	.	.	.	.	.	.	.
8r	.	8ryy	.	8ee\Lyy	.	.	.	.	.	.	.	.	.	.	.	.
8E\L	.	8g/Lyy	.	8ee\Jyy	.	.	.	.	.	.	.	.	.	.	.	.
8G\	.	8b/yy	.	8gg\Lyy	.	.	.	.	.	.	.	.	.	.	.	.
8A\J	.	8cc/Jyy	.	(16ff#\Lyy	.	.	.	.	.	.	.	.	.	.	.	.
.	.	.	.	16ee\JJ)yy	.	.	.	.	.	.	.	.	.	.	.	.
=102	=102	=102	=102	=102	=102	=102	=102	=102	=102	=102	=102	=102	=102	=102	=102	=102
4B\	.	12f#/Lyy	.	(12dd#X\Lyy	.	2.ryy	2.r	.	.	2.r	.	.	2.ryy	2.ryy	2.ryy	.
.	.	12e/yy	.	12cc\yy	.	.	.	.	.	.	.	.	.	.	.	.
.	.	12d#X/Jyy	.	12b\J)yy	.	.	.	.	.	.	.	.	.	.	.	.
8B\L	.	4d#/yy	.	4b\yy	.	.	.	.	.	.	.	.	.	.	.	.
8A\	.	.	.	.	.	.	.	.	.	.	.	.	.	.	.	.
8G\	.	4ryy	.	4ryy	.	.	.	.	.	.	.	.	.	.	.	.
8F#\J	.	.	.	.	.	.	.	.	.	.	.	.	.	.	.	.
=103	=103	=103	=103	=103	=103	=103	=103	=103	=103	=103	=103	=103	=103	=103	=103	=103
!	!LO:DY:a:t=pia.	!	!	!	!	!	!	!	!	!	!	!	!	!	!	!
!	!	!	!LO:DY:a:t=pia	!	!	!	!	!	!	!	!	!	!	!	!	!
!	!	!	!	!	!LO:DY:a:t=pia.	!	!	!	!	!	!	!	!	!	!	!
4E\	p	4g/yy	yp	12ee\Lyy	yp	2.ryy	2.r	.	.	2.r	.	.	2.ryy	2.ryy	2.ryy	.
.	.	.	.	12gg\yy	.	.	.	.	.	.	.	.	.	.	.	.
.	.	.	.	12bb\Jyy	.	.	.	.	.	.	.	.	.	.	.	.
8r	.	8ryy	.	8ee\Lyy	.	.	.	.	.	.	.	.	.	.	.	.
8E\L	.	8g/Lyy	.	8ee\Jyy	.	.	.	.	.	.	.	.	.	.	.	.
8G\	.	8b/yy	.	4ee\yy	.	.	.	.	.	.	.	.	.	.	.	.
8A\J	.	8cc/Jyy	.	.	.	.	.	.	.	.	.	.	.	.	.	.
=104	=104	=104	=104	=104	=104	=104	=104	=104	=104	=104	=104	=104	=104	=104	=104	=104
4B\	.	4f#/yy	.	12b\Lyy	.	2.ryy	2.r	.	.	2.r	.	.	2.ryy	2.ryy	2.ryy	.
.	.	.	.	12dd#X\yy	.	.	.	.	.	.	.	.	.	.	.	.
.	.	.	.	12ff#\Jyy	.	.	.	.	.	.	.	.	.	.	.	.
8r	.	8ryy	.	8b\Lyy	.	.	.	.	.	.	.	.	.	.	.	.
8BB/L	.	8d#X/Lyy	.	8b\Jyy	.	.	.	.	.	.	.	.	.	.	.	.
8C#X/	.	8e/yy	.	4b\yy	.	.	.	.	.	.	.	.	.	.	.	.
8D#X/J	.	8f#/Jyy	.	.	.	.	.	.	.	.	.	.	.	.	.	.
=105	=105	=105	=105	=105	=105	=105	=105	=105	=105	=105	=105	=105	=105	=105	=105	=105
4E\	.	4g/yy	.	12ee\Lyy	.	2.ryy	2.r	.	.	2.r	.	.	2.ryy	2.ryy	2.ryy	.
.	.	.	.	12gg\yy	.	.	.	.	.	.	.	.	.	.	.	.
.	.	.	.	12bb\Jyy	.	.	.	.	.	.	.	.	.	.	.	.
8r	.	8ryy	.	8ee\Lyy	.	.	.	.	.	.	.	.	.	.	.	.
8E\L	.	8g/Lyy	.	8ee\Jyy	.	.	.	.	.	.	.	.	.	.	.	.
8G\	.	8b/yy	.	8gg\Lyy	.	.	.	.	.	.	.	.	.	.	.	.
8A\J	.	8cc/Jyy	.	(16ff#\Lyy	.	.	.	.	.	.	.	.	.	.	.	.
.	.	.	.	16ee\JJ)yy	.	.	.	.	.	.	.	.	.	.	.	.
=106	=106	=106	=106	=106	=106	=106	=106	=106	=106	=106	=106	=106	=106	=106	=106	=106
4B\	.	(12f#/Lyy	.	(12dd#X\Lyy	.	2.ryy	2.r	.	.	2.r	.	.	2.ryy	2.ryy	2.ryy	.
.	.	12e/)yy	.	12cc\yy	.	.	.	.	.	.	.	.	.	.	.	.
.	.	12d#X/Jyy	.	12b\J)yy	.	.	.	.	.	.	.	.	.	.	.	.
8B\L	.	4d#/yy	.	4b\yy	.	.	.	.	.	.	.	.	.	.	.	.
8A\	.	.	.	.	.	.	.	.	.	.	.	.	.	.	.	.
8G\	.	4ryy	.	4ryy	.	.	.	.	.	.	.	.	.	.	.	.
8F#\J	.	.	.	.	.	.	.	.	.	.	.	.	.	.	.	.
=107	=107	=107	=107	=107	=107	=107	=107	=107	=107	=107	=107	=107	=107	=107	=107	=107
!	!LO:DY:a:t=for.	!	!	!	!	!	!	!	!	!	!	!	!	!	!	!
!	!	!	!LO:DY:a:t=for.	!	!	!	!	!	!	!	!	!	!	!	!	!
!	!	!	!	!	!LO:DY:a:t=fr.	!	!	!	!	!	!	!	!	!	!	!
4E\	f	4g#X/yy	yf	12ee\Lyy	yf	2.ryy	2.r	.	.	2.r	.	.	2.ryy	2.ryy	2.ryy	.
.	.	.	.	12gg#X\yy	.	.	.	.	.	.	.	.	.	.	.	.
.	.	.	.	12bb\Jyy	.	.	.	.	.	.	.	.	.	.	.	.
8r	.	8ryy	.	8ee\Lyy	.	.	.	.	.	.	.	.	.	.	.	.
8E\L	.	8g#/Lyy	.	8ddn\Jyy	.	.	.	.	.	.	.	.	.	.	.	.
8F#\	.	8a/yy	.	4dd\yy	.	.	.	.	.	.	.	.	.	.	.	.
8G#X\J	.	8b/Jyy	.	.	.	.	.	.	.	.	.	.	.	.	.	.
=108	=108	=108	=108	=108	=108	=108	=108	=108	=108	=108	=108	=108	=108	=108	=108	=108
4A\	.	12e/Lyy	.	12ccn\Lyy	.	2.ryy	2.r	.	.	2.r	.	.	2.ryy	2.ryy	2.ryy	.
.	.	12d/yy	.	12b\yy	.	.	.	.	.	.	.	.	.	.	.	.
.	.	12c/Jyy	.	12a\Jyy	.	.	.	.	.	.	.	.	.	.	.	.
8r	.	2c/yy	.	2a/yy	.	.	.	.	.	.	.	.	.	.	.	.
8A\L	.	.	.	.	.	.	.	.	.	.	.	.	.	.	.	.
8B\	.	.	.	.	.	.	.	.	.	.	.	.	.	.	.	.
8cn\J	.	.	.	.	.	.	.	.	.	.	.	.	.	.	.	.
=109	=109	=109	=109	=109	=109	=109	=109	=109	=109	=109	=109	=109	=109	=109	=109	=109
4d\	.	4f#/yy	.	12dd\Lyy	.	2.ryy	2.r	.	.	2.r	.	.	2.ryy	2.ryy	2.ryy	.
.	.	.	.	12ff#\yy	.	.	.	.	.	.	.	.	.	.	.	.
.	.	.	.	12aa\Jyy	.	.	.	.	.	.	.	.	.	.	.	.
8r	.	8ryy	.	8dd\Lyy	.	.	.	.	.	.	.	.	.	.	.	.
8D\L	.	8f#/Lyy	.	8cc\Jyy	.	.	.	.	.	.	.	.	.	.	.	.
8E\	.	8gn/yy	.	4cc\yy	.	.	.	.	.	.	.	.	.	.	.	.
8F#\J	.	8a/Jyy	.	.	.	.	.	.	.	.	.	.	.	.	.	.
!LO:LB:g=original	!	!	!	!	!	!	!	!	!	!	!	!	!	!	!	!
=110	=110	=110	=110	=110	=110	=110	=110	=110	=110	=110	=110	=110	=110	=110	=110	=110
4G\	.	12d/Lyy	.	(12b/Lyy	.	2.ryy	2.r	.	.	2.r	.	.	2.ryy	2.ryy	2.ryy	.
.	.	12c/yy	.	12a/yy	.	.	.	.	.	.	.	.	.	.	.	.
.	.	12B/Jyy	.	12g/J)yy	.	.	.	.	.	.	.	.	.	.	.	.
8r	.	2B/yy	.	2g/yy	.	.	.	.	.	.	.	.	.	.	.	.
8G\L	.	.	.	.	.	.	.	.	.	.	.	.	.	.	.	.
8D\	.	.	.	.	.	.	.	.	.	.	.	.	.	.	.	.
8BB\J	.	.	.	.	.	.	.	.	.	.	.	.	.	.	.	.
=111	=111	=111	=111	=111	=111	=111	=111	=111	=111	=111	=111	=111	=111	=111	=111	=111
!	!LO:DY:a:t=pia.	!	!	!	!LO:DY:a	!	!	!	!	!	!	!	!	!	!	!
!	!	!	!LO:DY:a:t=pia&colon;	!	!	!	!	!	!	!	!	!	!	!	!	!
8GG/L	p	4.b\yy	yp	4.dd\yy	yp	2.ryy	2.r	.	.	2.r	.	.	2.ryy	2.ryy	2.ryy	.
8GG/	.	.	.	.	.	.	.	.	.	.	.	.	.	.	.	.
8GG/	.	.	.	.	.	.	.	.	.	.	.	.	.	.	.	.
8GG/	.	(16cc\LLyy	.	(16ee\LLyy	.	.	.	.	.	.	.	.	.	.	.	.
.	.	16b\JJ)yy	.	16dd\JJ)yy	.	.	.	.	.	.	.	.	.	.	.	.
8GG/	.	4b\yy	.	4gg\yy	.	.	.	.	.	.	.	.	.	.	.	.
8GG/J	.	.	.	.	.	.	.	.	.	.	.	.	.	.	.	.
=112	=112	=112	=112	=112	=112	=112	=112	=112	=112	=112	=112	=112	=112	=112	=112	=112
8GG/L	.	4.b\yy	.	4.dd\yy	.	2.ryy	2.r	.	.	2.r	.	.	2.ryy	2.ryy	2.ryy	.
8GG/	.	.	.	.	.	.	.	.	.	.	.	.	.	.	.	.
8GG/	.	.	.	.	.	.	.	.	.	.	.	.	.	.	.	.
8GG/	.	(16cc\LLyy	.	(16ee\LLyy	.	.	.	.	.	.	.	.	.	.	.	.
.	.	16b\JJ)yy	.	16dd\JJ)yy	.	.	.	.	.	.	.	.	.	.	.	.
8GG/	.	4b\yy	.	4gg\yy	.	.	.	.	.	.	.	.	.	.	.	.
8GG/J	.	.	.	.	.	.	.	.	.	.	.	.	.	.	.	.
=113	=113	=113	=113	=113	=113	=113	=113	=113	=113	=113	=113	=113	=113	=113	=113	=113
8D\L	.	4.a\yy	.	4.cc\yy	.	2.ryy	2.r	.	.	2.r	.	.	2.ryy	2.ryy	2.ryy	.
8D\	.	.	.	.	.	.	.	.	.	.	.	.	.	.	.	.
8D\	.	.	.	.	.	.	.	.	.	.	.	.	.	.	.	.
8D\	.	(16b\LLyy	.	(16dd\LLyy	.	.	.	.	.	.	.	.	.	.	.	.
.	.	16a\JJ)yy	.	16cc\JJ)yy	.	.	.	.	.	.	.	.	.	.	.	.
8D\	.	4cc\yy	.	4aa\yy	.	.	.	.	.	.	.	.	.	.	.	.
8D\J	.	.	.	.	.	.	.	.	.	.	.	.	.	.	.	.
=114	=114	=114	=114	=114	=114	=114	=114	=114	=114	=114	=114	=114	=114	=114	=114	=114
8D\L	.	4.a\yy	.	4.cc\yy	.	2.ryy	2.r	.	.	2.r	.	.	2.ryy	2.ryy	2.ryy	.
8D\	.	.	.	.	.	.	.	.	.	.	.	.	.	.	.	.
8D\	.	.	.	.	.	.	.	.	.	.	.	.	.	.	.	.
8D\	.	(16b\LLyy	.	(16dd\LLyy	.	.	.	.	.	.	.	.	.	.	.	.
.	.	16a\JJ)yy	.	16cc\JJ)yy	.	.	.	.	.	.	.	.	.	.	.	.
8D\	.	4cc\yy	.	4aa\yy	.	.	.	.	.	.	.	.	.	.	.	.
8D\J	.	.	.	.	.	.	.	.	.	.	.	.	.	.	.	.
=115	=115	=115	=115	=115	=115	=115	=115	=115	=115	=115	=115	=115	=115	=115	=115	=115
8GG/L	.	8b/Lyy	.	(16gg\LLyy	.	2.ryy	2.r	.	.	2.r	.	.	2.ryy	2.ryy	2.ryy	.
.	.	.	.	16dd\)yy	.	.	.	.	.	.	.	.	.	.	.	.
8C/J	.	8a/Jyy	.	(16ee\yy	.	.	.	.	.	.	.	.	.	.	.	.
.	.	.	.	16cc\JJ)yy	.	.	.	.	.	.	.	.	.	.	.	.
4D/	.	4g/yy	.	4b/yy	.	.	.	.	.	.	.	.	.	.	.	.
4DD/	.	4f#/yy	.	4a/yy	.	.	.	.	.	.	.	.	.	.	.	.
=116	=116	=116	=116	=116	=116	=116	=116	=116	=116	=116	=116	=116	=116	=116	=116	=116
.	.	8qqf#/yy	.	8qqa/yy	.	.	.	.	.	.	.	.	.	.	.	.
4GG/	.	4g/yy	.	4g/yy	.	2.ryy	2.r	.	.	2.r	.	.	2.ryy	2.ryy	2.ryy	.
!	!LO:DY:a:t=for	!	!	!	!	!	!	!	!	!	!	!	!	!	!	!
8G\L	f	4ryy	.	4ryy	.	.	.	.	.	.	.	.	.	.	.	.
8A\	.	.	.	.	.	.	.	.	.	.	.	.	.	.	.	.
8G\	.	4ryy	.	4ryy	.	.	.	.	.	.	.	.	.	.	.	.
8F#\J	.	.	.	.	.	.	.	.	.	.	.	.	.	.	.	.
=117	=117	=117	=117	=117	=117	=117	=117	=117	=117	=117	=117	=117	=117	=117	=117	=117
!	!	!	!LO:DY:a:t=for	!	!	!	!	!	!	!	!	!	!	!	!	!
!	!	!	!	!	!LO:DY:a:t=for&colon;	!	!	!	!	!	!	!	!	!	!	!
4E\	.	4g#X/yy	yf	8.ee\Lyy	yf	2.ryy	2.r	.	.	2.r	.	.	2.ryy	2.ryy	2.ryy	.
.	.	.	.	16ee\Jkyy	.	.	.	.	.	.	.	.	.	.	.	.
8r	.	8ryy	.	4.ee\yy	.	.	.	.	.	.	.	.	.	.	.	.
8E\L	.	8g#/Lyy	.	.	.	.	.	.	.	.	.	.	.	.	.	.
8F#\	.	8a/yy	.	.	.	.	.	.	.	.	.	.	.	.	.	.
8G#X\J	.	8b/Jyy	.	8dd\yy	.	.	.	.	.	.	.	.	.	.	.	.
=118	=118	=118	=118	=118	=118	=118	=118	=118	=118	=118	=118	=118	=118	=118	=118	=118
4A\	.	12e/Lyy	.	12ccn\Lyy	.	2.ryy	2.r	.	.	2.r	.	.	2.ryy	2.ryy	2.ryy	.
.	.	12d/yy	.	12b\yy	.	.	.	.	.	.	.	.	.	.	.	.
.	.	12c/Jyy	.	12a\Jyy	.	.	.	.	.	.	.	.	.	.	.	.
8r	.	4c/yy	.	4a/yy	.	.	.	.	.	.	.	.	.	.	.	.
8c\L	.	.	.	.	.	.	.	.	.	.	.	.	.	.	.	.
8A\	.	4ryy	.	4ryy	.	.	.	.	.	.	.	.	.	.	.	.
8Gn\J	.	.	.	.	.	.	.	.	.	.	.	.	.	.	.	.
=119	=119	=119	=119	=119	=119	=119	=119	=119	=119	=119	=119	=119	=119	=119	=119	=119
4F#\	.	4a/yy	.	8.dd\Lyy	.	2.ryy	2.r	.	.	2.r	.	.	2.ryy	2.ryy	2.ryy	.
.	.	.	.	16dd\Jkyy	.	.	.	.	.	.	.	.	.	.	.	.
8r	.	8ryy	.	4.dd\yy	.	.	.	.	.	.	.	.	.	.	.	.
8D\L	.	8f#/Lyy	.	.	.	.	.	.	.	.	.	.	.	.	.	.
8E\	.	8gn/yy	.	.	.	.	.	.	.	.	.	.	.	.	.	.
8F#\J	.	8a/Jyy	.	8cc\yy	.	.	.	.	.	.	.	.	.	.	.	.
=120	=120	=120	=120	=120	=120	=120	=120	=120	=120	=120	=120	=120	=120	=120	=120	=120
4G\	.	(12d/Lyy	.	(12b/Lyy	.	2.ryy	2.r	.	.	2.r	.	.	2.ryy	2.ryy	2.ryy	.
.	.	12c/)yy	.	12a/yy	.	.	.	.	.	.	.	.	.	.	.	.
.	.	12B/Jyy	.	12g/J)yy	.	.	.	.	.	.	.	.	.	.	.	.
8r	.	4B/yy	.	4g/yy	.	.	.	.	.	.	.	.	.	.	.	.
8A\L	.	.	.	.	.	.	.	.	.	.	.	.	.	.	.	.
8G\	.	4ryy	.	4ryy	.	.	.	.	.	.	.	.	.	.	.	.
8F#\J	.	.	.	.	.	.	.	.	.	.	.	.	.	.	.	.
!LO:LB:g=original	!	!	!	!	!	!	!	!	!	!	!	!	!	!	!	!
=121	=121	=121	=121	=121	=121	=121	=121	=121	=121	=121	=121	=121	=121	=121	=121	=121
4E\	.	8.b/Lyy	.	8.gg\Lyy	.	2.ryy	2.r	.	.	2.r	.	.	2.ryy	2.ryy	2.ryy	.
.	.	16b/Jkyy	.	16gg\Jkyy	.	.	.	.	.	.	.	.	.	.	.	.
8r	.	4.b/yy	.	4.gg\yy	.	.	.	.	.	.	.	.	.	.	.	.
8E\L	.	.	.	.	.	.	.	.	.	.	.	.	.	.	.	.
8A\	.	.	.	.	.	.	.	.	.	.	.	.	.	.	.	.
8A#X\J	.	(16a/LLyy	.	(16ff#\LLyy	.	.	.	.	.	.	.	.	.	.	.	.
.	.	16g/JJ)yy	.	16ee\JJ)yy	.	.	.	.	.	.	.	.	.	.	.	.
=122	=122	=122	=122	=122	=122	=122	=122	=122	=122	=122	=122	=122	=122	=122	=122	=122
4B\	.	4g/yy	.	4eey\yy	.	2.ryy	2.r	.	.	2.r	.	.	2.ryy	2.ryy	2.ryy	.
4BB/	.	4f#/yy	.	4dd#X\yy	.	.	.	.	.	.	.	.	.	.	.	.
4BB/	.	4ryy	.	4ryy	.	.	.	.	.	.	.	.	.	.	.	.
=123	=123	=123	=123	=123	=123	=123	=123	=123	=123	=123	=123	=123	=123	=123	=123	=123
8BB/L	.	(16f#/LLyy	.	(16dd\LLyy	.	2.ryy	2.r	.	.	2.r	.	.	2.ryy	2.ryy	2.ryy	.
.	.	16g/JJ)yy	.	16ee\JJ)yy	.	.	.	.	.	.	.	.	.	.	.	.
8BB/	.	4f#/yy	.	4dd\yy	.	.	.	.	.	.	.	.	.	.	.	.
8BB/	.	.	.	.	.	.	.	.	.	.	.	.	.	.	.	.
8BB/	.	8g/yy	.	8ee\yy	.	.	.	.	.	.	.	.	.	.	.	.
.	.	8qqg/yy	.	8qqee/yy	.	.	.	.	.	.	.	.	.	.	.	.
8BB/	.	4a/yy	.	4ff#\yy	.	.	.	.	.	.	.	.	.	.	.	.
8BB/J	.	.	.	.	.	.	.	.	.	.	.	.	.	.	.	.
=124	=124	=124	=124	=124	=124	=124	=124	=124	=124	=124	=124	=124	=124	=124	=124	=124
8BB/L	.	(16f#/LLyy	.	(16a/LLyy	.	2.ryy	2.r	.	.	2.r	.	.	2.ryy	2.ryy	2.ryy	.
.	.	16g/JJ)yy	.	16b/JJ)yy	.	.	.	.	.	.	.	.	.	.	.	.
8BB/	.	4f#/yy	.	4a/yy	.	.	.	.	.	.	.	.	.	.	.	.
8BB/	.	.	.	.	.	.	.	.	.	.	.	.	.	.	.	.
8BB/	.	8g/yy	.	8b/yy	.	.	.	.	.	.	.	.	.	.	.	.
.	.	8qqg/yy	.	8qqb/yy	.	.	.	.	.	.	.	.	.	.	.	.
8BB/	.	4a/yy	.	4cc/yy	.	.	.	.	.	.	.	.	.	.	.	.
8BB/J	.	.	.	.	.	.	.	.	.	.	.	.	.	.	.	.
=125	=125	=125	=125	=125	=125	=125	=125	=125	=125	=125	=125	=125	=125	=125	=125	=125
8E\L	.	8g/Lyy	.	(16b\LLyy	.	2.ryy	2.r	.	.	2.r	.	.	2.ryy	2.ryy	2.ryy	.
.	.	.	.	16ee\)yy	.	.	.	.	.	.	.	.	.	.	.	.
8A\J	.	8f#/Jyy	.	(16cc\yy	.	.	.	.	.	.	.	.	.	.	.	.
.	.	.	.	16a\JJ)yy	.	.	.	.	.	.	.	.	.	.	.	.
4B\	.	4e/yy	.	4g/yy	.	.	.	.	.	.	.	.	.	.	.	.
4BB/	.	4d#X/yy	.	4f#/yy	.	.	.	.	.	.	.	.	.	.	.	.
=126	=126	=126	=126	=126	=126	=126	=126	=126	=126	=126	=126	=126	=126	=126	=126	=126
!	!	!	!LO:DY:a	!	!LO:DY:a	!	!	!	!	!	!	!	!	!	!	!
!	!LO:DY:a:t=pia&colon;	!	!	!	!	!	!	!	!	!	!	!	!	!	!	!
8BB/L	p	(16f#/LLyy	yp	(16dd\LLyy	yp	2.ryy	2.r	.	.	2.r	.	.	2.ryy	2.ryy	2.ryy	.
.	.	16g/JJ)yy	.	16ee\JJ)yy	.	.	.	.	.	.	.	.	.	.	.	.
8BB/	.	4f#/yy	.	4dd\yy	.	.	.	.	.	.	.	.	.	.	.	.
8BB/	.	.	.	.	.	.	.	.	.	.	.	.	.	.	.	.
8BB/	.	8g/yy	.	8ee\yy	.	.	.	.	.	.	.	.	.	.	.	.
.	.	8qqg/yy	.	8qqee/yy	.	.	.	.	.	.	.	.	.	.	.	.
8BB/	.	4a/yy	.	4ff#\yy	.	.	.	.	.	.	.	.	.	.	.	.
8BB/J	.	.	.	.	.	.	.	.	.	.	.	.	.	.	.	.
=127	=127	=127	=127	=127	=127	=127	=127	=127	=127	=127	=127	=127	=127	=127	=127	=127
8BB/L	.	(16f#/LLyy	.	(16a\LLyy	.	2.ryy	2.r	.	.	2.r	.	.	2.ryy	2.ryy	2.ryy	.
.	.	16g/JJ)yy	.	16b\JJyy	.	.	.	.	.	.	.	.	.	.	.	.
8BB/	.	4f#/yy	.	4a\)yy	.	.	.	.	.	.	.	.	.	.	.	.
8BB/	.	.	.	.	.	.	.	.	.	.	.	.	.	.	.	.
8BB/	.	8g/yy	.	8b\yy	.	.	.	.	.	.	.	.	.	.	.	.
.	.	8qqg/yy	.	8qqb/yy	.	.	.	.	.	.	.	.	.	.	.	.
8BB/	.	4a/yy	.	4cc\yy	.	.	.	.	.	.	.	.	.	.	.	.
8BB/J	.	.	.	.	.	.	.	.	.	.	.	.	.	.	.	.
=128	=128	=128	=128	=128	=128	=128	=128	=128	=128	=128	=128	=128	=128	=128	=128	=128
8E\L	.	8g/Lyy	.	(16b\LLyy	.	2.ryy	2.r	.	.	2.r	.	.	2.ryy	2.ryy	2.ryy	.
.	.	.	.	16ee\)yy	.	.	.	.	.	.	.	.	.	.	.	.
8A\J	.	8f#/Jyy	.	(16cc\yy	.	.	.	.	.	.	.	.	.	.	.	.
.	.	.	.	16a\JJ)yy	.	.	.	.	.	.	.	.	.	.	.	.
4B\	.	4e/yy	.	4g/yy	.	.	.	.	.	.	.	.	.	.	.	.
!	!LO:DY:a:t=for	!	!	!	!	!	!	!	!	!	!	!	!	!	!	!
4BB/	f	4d#X/yy	.	4f#/yy	.	.	.	.	.	.	.	.	.	.	.	.
=129	=129	=129	=129	=129	=129	=129	=129	=129	=129	=129	=129	=129	=129	=129	=129	=129
!	!	!	!LO:DY:a:t=for.	!	!	!	!	!	!	!	!	!	!	!	!	!
!	!	!	!	!	!LO:DY:a:t=for.	!	!	!	!	!	!	!	!	!	!	!
4E\	.	16e/LLyy	yf	16e/LLyy	yf	2.ryy	2.r	.	.	2.r;	.	.	2.ryy	2.ryy	2.ryy	.
.	.	16ee/yy	.	16ee/yy	.	.	.	.	.	.	.	.	.	.	.	.
.	.	16b/yy	.	16b/yy	.	.	.	.	.	.	.	.	.	.	.	.
.	.	16g/JJyy	.	16g/JJyy	.	.	.	.	.	.	.	.	.	.	.	.
!	!	!	!	!	!	!	!	!	!	!	!	!	!	!	!	!
4r	.	16e/LLyy	.	16e/LLyy	.	.	.	.	.	.	.	.	.	.	.	.
.	.	16ee/yy	.	16ee/yy	.	.	.	.	.	.	.	.	.	.	.	.
.	.	16b/yy	.	16b/yy	.	.	.	.	.	.	.	.	.	.	.	.
.	.	16g/JJyy	.	16g/JJyy	.	.	.	.	.	.	.	.	.	.	.	.
4r;	.	4e;/yy	.	4e;/yy	.	.	.	.	.	.	.	.	.	.	.	.
==	==	==	==	==	==	==	==	==	==	==	==	==	==	==	==	==
*-	*-	*-	*-	*-	*-	*-	*-	*-	*-	*-	*-	*-	*-	*-	*-	*-
!!!system-decoration: s1[(s2,s3)][(s4,s5,s6)][(s7,s8)]s9
!!!ENC: Mateusz Solarz
!!!END: 2020-12-02
!!!ENC: Jan Barakat
!!!END: 2022-03-06
